;FLAVOR:Marlin
;TIME:2179
;Filament used: 1.83525m
;Layer height: 0.2
;Generated with Cura_SteamEngine 3.6.0
M82 ;absolute extrusion mode
G21 ; set units to millimeters
G90 ; use absolute positioning
M82 ; absolute extrusion mode
M104 S200 ; set extruder temp
M140 S60 ; set bed temp
M190 S60 ; wait for bed temp
M109 S200 ; wait for extruder temp
G28 W ; home all without mesh bed level
G80 ; mesh bed leveling
G92 E0.0 ; reset extruder distance position
G1 Y-3.0 F1000.0 ; go outside print area
G1 X60.0 E9.0 F1000.0 ; intro line
G1 X100.0 E21.5 F1000.0 ; intro line
G92 E0.0 ; reset extruder distance position
G92 E0
G1 F2100 E-0.8
;LAYER_COUNT:146
;LAYER:0
M107
G0 F3600 X105.97 Y100.41 Z0.15
;TYPE:SKIRT
G1 F2100 E0
G1 F1800 X106.367 Y100.007 E0.01411
G1 X106.816 Y99.664 E0.02821
G1 X107.31 Y99.388 E0.04232
G1 X107.837 Y99.185 E0.05641
G1 X108.388 Y99.058 E0.07051
G1 X109 Y99.009 E0.08583
G1 X112.783 Y99 E0.1802
G1 X113.116 Y99.013 E0.18851
G1 X118.267 Y99.431 E0.31743
G1 X123.697 Y99.66 E0.453
G1 X129.127 Y99.58 E0.58846
G1 X136.187 Y99.022 E0.76513
G1 X136.501 Y99.01 E0.77296
G1 X140.99 Y99.009 E0.88494
G1 X141.554 Y99.049 E0.89905
G1 X142.107 Y99.168 E0.91316
G1 X142.637 Y99.363 E0.92724
G1 X143.135 Y99.632 E0.94136
G1 X143.589 Y99.968 E0.95545
G1 X143.992 Y100.365 E0.96956
G1 X144.335 Y100.814 E0.98366
G1 X144.611 Y101.307 E0.99775
G1 X144.815 Y101.835 E1.01187
G1 X144.942 Y102.386 E1.02598
G1 X144.991 Y103.009 E1.04157
G1 X144.991 Y109.991 E1.21573
G1 X144.951 Y110.555 E1.22984
G1 X144.832 Y111.108 E1.24395
G1 X144.636 Y111.638 E1.25804
G1 X144.368 Y112.135 E1.27213
G1 X144.032 Y112.59 E1.28624
G1 X143.635 Y112.993 E1.30035
G1 X143.185 Y113.335 E1.31445
G1 X142.692 Y113.611 E1.32854
G1 X142.164 Y113.815 E1.34266
G1 X141.614 Y113.942 E1.35674
G1 X140.987 Y113.991 E1.37243
G1 X136.462 Y113.987 E1.48531
G1 X136.155 Y113.975 E1.49297
G1 X128.99 Y113.416 E1.67225
G1 X123.559 Y113.342 E1.80774
G1 X118.147 Y113.574 E1.94286
G1 X113.861 Y113.974 E2.05024
G1 X113.48 Y113.991 E2.05976
G1 X109 Y113.981 E2.17151
G1 X108.436 Y113.94 E2.18562
G1 X107.884 Y113.819 E2.19971
G1 X107.354 Y113.623 E2.21381
G1 X106.857 Y113.353 E2.22792
G1 X106.403 Y113.016 E2.24202
G1 X106.001 Y112.618 E2.25613
G1 X105.66 Y112.168 E2.27022
G1 X105.385 Y111.674 E2.28432
G1 X105.182 Y111.146 E2.29843
G1 X105.056 Y110.595 E2.31253
G1 X105.009 Y109.98 E2.32792
G1 X105.01 Y103.008 E2.50184
G1 X105.05 Y102.445 E2.51592
G1 X105.169 Y101.892 E2.53003
G1 X105.365 Y101.362 E2.54412
G1 X105.634 Y100.864 E2.55824
G1 X105.97 Y100.41 E2.57233
G0 F3600 X106.365 Y100.567
G1 F1800 X106.758 Y100.201 E2.58573
G1 X107.2 Y99.897 E2.59911
G1 X107.682 Y99.663 E2.61247
G1 X108.194 Y99.503 E2.62586
G1 X108.724 Y99.42 E2.63924
G1 X109.001 Y99.409 E2.64615
G1 X112.784 Y99.4 E2.74052
G1 X113.084 Y99.412 E2.74801
G1 X118.218 Y99.829 E2.8765
G1 X123.703 Y100.06 E3.01344
G1 X129.148 Y99.98 E3.14929
G1 X136.218 Y99.421 E3.3262
G1 X136.501 Y99.41 E3.33326
G1 X140.99 Y99.409 E3.44524
G1 X141.525 Y99.449 E3.45862
G1 X142.048 Y99.568 E3.472
G1 X142.547 Y99.763 E3.48537
G1 X143.012 Y100.03 E3.49874
G1 X143.433 Y100.363 E3.51213
G1 X143.798 Y100.755 E3.52549
G1 X144.102 Y101.198 E3.5389
G1 X144.337 Y101.68 E3.55227
G1 X144.497 Y102.192 E3.56565
G1 X144.579 Y102.721 E3.57901
G1 X144.591 Y103.009 E3.5862
G1 X144.591 Y109.991 E3.76037
G1 X144.551 Y110.526 E3.77375
G1 X144.432 Y111.049 E3.78713
G1 X144.237 Y111.548 E3.80049
G1 X143.969 Y112.013 E3.81388
G1 X143.636 Y112.433 E3.82725
G1 X143.244 Y112.799 E3.84063
G1 X142.802 Y113.102 E3.854
G1 X142.319 Y113.337 E3.8674
G1 X141.808 Y113.497 E3.88075
G1 X141.278 Y113.58 E3.89413
G1 X140.988 Y113.591 E3.90137
G1 X136.463 Y113.587 E4.01425
G1 X136.186 Y113.576 E4.02117
G1 X129.011 Y113.017 E4.20069
G1 X123.565 Y112.942 E4.33655
G1 X118.091 Y113.177 E4.47323
G1 X113.823 Y113.575 E4.58016
G1 X113.481 Y113.591 E4.5887
G1 X109.001 Y113.581 E4.70045
G1 X108.466 Y113.54 E4.71384
G1 X107.944 Y113.42 E4.7272
G1 X107.445 Y113.223 E4.74058
G1 X106.98 Y112.955 E4.75397
G1 X106.561 Y112.621 E4.76733
G1 X106.196 Y112.228 E4.78071
G1 X105.894 Y111.785 E4.79409
G1 X105.66 Y111.302 E4.80748
G1 X105.501 Y110.79 E4.82085
G1 X105.42 Y110.26 E4.83422
G1 X105.409 Y109.98 E4.84121
G1 X105.41 Y103.008 E5.01513
G1 X105.45 Y102.474 E5.02849
G1 X105.569 Y101.951 E5.04187
G1 X105.764 Y101.451 E5.05526
G1 X106.032 Y100.987 E5.06862
G1 X106.365 Y100.567 E5.08199
G0 F3600 X106.43 Y101.117
G1 F1800 X106.76 Y100.734 E5.0946
G1 X107.146 Y100.408 E5.10721
G1 X107.579 Y100.147 E5.11982
G1 X108.048 Y99.957 E5.13244
G1 X108.54 Y99.844 E5.14503
G1 X109.002 Y99.809 E5.15659
G1 X112.785 Y99.8 E5.25096
G1 X113.052 Y99.81 E5.25762
G1 X118.22 Y100.229 E5.38696
G1 X123.693 Y100.46 E5.52361
G1 X129.171 Y100.379 E5.66027
G1 X136.25 Y99.82 E5.83741
G1 X136.501 Y99.81 E5.84368
G1 X140.99 Y99.809 E5.95566
G1 X141.494 Y99.849 E5.96827
G1 X141.986 Y99.968 E5.98089
G1 X142.452 Y100.162 E5.99349
G1 X142.882 Y100.428 E6.0061
G1 X143.265 Y100.758 E6.01871
G1 X143.592 Y101.144 E6.03133
G1 X143.853 Y101.577 E6.04394
G1 X144.043 Y102.046 E6.05656
G1 X144.156 Y102.538 E6.06916
G1 X144.191 Y103.009 E6.08094
G1 X144.191 Y109.991 E6.2551
G1 X144.151 Y110.495 E6.26772
G1 X144.032 Y110.986 E6.28032
G1 X143.838 Y111.453 E6.29293
G1 X143.572 Y111.883 E6.30555
G1 X143.242 Y112.266 E6.31816
G1 X142.855 Y112.592 E6.33078
G1 X142.422 Y112.853 E6.34339
G1 X141.954 Y113.043 E6.35599
G1 X141.461 Y113.156 E6.36861
G1 X140.988 Y113.191 E6.38044
G1 X136.463 Y113.187 E6.49332
G1 X136.217 Y113.177 E6.49946
G1 X129.032 Y112.617 E6.67923
G1 X123.553 Y112.542 E6.81592
G1 X118.077 Y112.777 E6.95264
G1 X113.786 Y113.177 E7.06015
G1 X113.482 Y113.191 E7.06774
G1 X109.002 Y113.181 E7.17949
G1 X108.498 Y113.14 E7.19211
G1 X108.007 Y113.02 E7.20472
G1 X107.541 Y112.824 E7.21733
G1 X107.111 Y112.558 E7.22994
G1 X106.729 Y112.226 E7.24256
G1 X106.404 Y111.839 E7.25517
G1 X106.144 Y111.406 E7.26777
G1 X105.955 Y110.937 E7.28038
G1 X105.843 Y110.444 E7.29299
G1 X105.809 Y109.981 E7.30457
G1 X105.81 Y103.009 E7.47849
G1 X105.85 Y102.505 E7.4911
G1 X105.969 Y102.013 E7.50373
G1 X106.164 Y101.547 E7.51633
G1 X106.43 Y101.117 E7.52894
G1 F2100 E6.72894
;MESH:hexapod_coxa_mirror.stl
G0 F3600 X108.335 Y103.614
G0 X109.614 Y103.614
G0 X112.83 Y109.33
G0 X112.9 Y109.4
;TYPE:WALL-INNER
G1 F2100 E7.52894
G1 F1800 X109.6 Y109.4 E7.61126
G1 X109.6 Y103.6 E7.75595
G1 X112.9 Y103.6 E7.83826
G1 X112.9 Y109.4 E7.98295
G0 F3600 X113.3 Y109.8
;TYPE:WALL-OUTER
G1 F1800 X109.2 Y109.8 E8.08522
G1 X109.2 Y103.2 E8.24986
G1 X113.3 Y103.2 E8.35213
G1 X113.3 Y109.8 E8.51677
G0 F3600 X113.1 Y109.8
G0 X112.83 Y109.33
G0 X112.51 Y109.01
;TYPE:SKIN
G1 F1800 X109.99 Y109.01 E8.57963
G1 X109.99 Y103.99 E8.70486
G1 X112.51 Y103.99 E8.76772
G1 X112.51 Y109.01 E8.89294
G0 F3600 X110.527 Y108.83
G1 F1800 X110.169 Y108.472 E8.90557
G0 F3600 X110.169 Y107.906
G1 F1800 X111.092 Y108.83 E8.93815
G0 F3600 X111.658 Y108.83
G1 F1800 X110.169 Y107.34 E8.9907
G0 F3600 X110.169 Y106.775
G1 F1800 X112.224 Y108.83 E9.06319
G0 F3600 X112.328 Y108.369
G1 F1800 X110.169 Y106.209 E9.13938
G0 F3600 X110.169 Y105.643
G1 F1800 X112.328 Y107.803 E9.21556
G0 F3600 X112.328 Y107.237
G1 F1800 X110.169 Y105.078 E9.29172
G0 F3600 X110.169 Y104.512
G1 F1800 X112.328 Y106.672 E9.3679
G0 F3600 X112.328 Y106.106
G1 F1800 X110.392 Y104.17 E9.4362
G0 F3600 X110.958 Y104.17
G1 F1800 X112.328 Y105.54 E9.48453
G0 F3600 X112.328 Y104.974
G1 F1800 X111.524 Y104.17 E9.5129
G0 F3600 X112.089 Y104.17
G1 F1800 X112.328 Y104.409 E9.52133
G1 F2100 E8.72133
G0 F3600 X112.88 Y109.33
G0 X114.165 Y109.33
G0 X135.835 Y109.33
G0 X137.12 Y109.33
G0 X140.33 Y109.33
G0 X140.4 Y109.4
;TYPE:WALL-INNER
G1 F2100 E9.52133
G1 F1800 X137.1 Y109.4 E9.60365
G1 X137.1 Y103.6 E9.74833
G1 X140.4 Y103.6 E9.83065
G1 X140.4 Y109.4 E9.97533
G0 F3600 X140.8 Y109.8
;TYPE:WALL-OUTER
G1 F1800 X136.7 Y109.8 E10.0776
G1 X136.7 Y103.2 E10.24224
G1 X140.8 Y103.2 E10.34452
G1 X140.8 Y109.8 E10.50915
G0 F3600 X140.6 Y109.8
G0 X140.33 Y109.33
G0 X140.01 Y109.01
;TYPE:SKIN
G1 F1800 X137.49 Y109.01 E10.57201
G1 X137.49 Y103.99 E10.69724
G1 X140.01 Y103.99 E10.7601
G1 X140.01 Y109.01 E10.88532
G0 F3600 X138.245 Y108.83
G1 F1800 X137.668 Y108.253 E10.90568
G0 F3600 X137.668 Y107.687
G1 F1800 X138.811 Y108.83 E10.946
G0 F3600 X139.377 Y108.83
G1 F1800 X137.668 Y107.121 E11.00629
G0 F3600 X137.668 Y106.556
G1 F1800 X139.829 Y108.716 E11.08251
G0 F3600 X139.829 Y108.151
G1 F1800 X137.668 Y105.99 E11.15874
G0 F3600 X137.668 Y105.424
G1 F1800 X139.829 Y107.585 E11.23498
G0 F3600 X139.829 Y107.019
G1 F1800 X137.668 Y104.858 E11.31122
G0 F3600 X137.668 Y104.293
G1 F1800 X139.829 Y106.454 E11.38745
G0 F3600 X139.829 Y105.888
G1 F1800 X138.111 Y104.17 E11.44806
G0 F3600 X138.677 Y104.17
G1 F1800 X139.829 Y105.322 E11.4887
G0 F3600 X139.829 Y104.757
G1 F1800 X139.242 Y104.17 E11.50941
M104 S200
G1 X139.172 Y104.1
G1 F2100 E10.70941
;MESH:NONMESH
G0 F3600 X137.12 Y109.33
G0 X135.835 Y109.33
G0 X114.165 Y109.33
G0 X112.88 Y109.33
G0 X112.83 Y109.33
G0 X112.9 Y109.4
;TIME_ELAPSED:23.490580
;LAYER:1
M140 S60
M106 S255
;MESH:hexapod_coxa_mirror.stl
G0 F5400 X112.9 Y109.4 Z0.35
;TYPE:WALL-INNER
G1 F2100 E11.50941
G1 F2700 X109.6 Y109.4 E11.61916
G1 X109.6 Y103.6 E11.81207
G1 X112.9 Y103.6 E11.92183
G1 X112.9 Y109.4 E12.11474
G0 F5400 X113.3 Y109.8
;TYPE:WALL-OUTER
G1 F1800 X109.2 Y109.8 E12.25111
G1 X109.2 Y103.2 E12.47062
G1 X113.3 Y103.2 E12.60699
G1 X113.3 Y109.8 E12.82651
G0 F5400 X113.1 Y109.8
G0 X112.83 Y109.33
G0 X112.51 Y109.01
;TYPE:SKIN
G1 F1800 X109.99 Y109.01 E12.91032
G1 X109.99 Y103.99 E13.07729
G1 X112.51 Y103.99 E13.1611
G1 X112.51 Y109.01 E13.32807
G0 F5400 X112.328 Y108.288
G1 F1800 X111.787 Y108.83 E13.35354
G0 F5400 X111.221 Y108.83
G1 F1800 X112.328 Y107.722 E13.40563
G0 F5400 X112.328 Y107.157
G1 F1800 X110.655 Y108.83 E13.48433
G0 F5400 X110.169 Y108.75
G1 F1800 X112.328 Y106.591 E13.58588
G0 F5400 X112.328 Y106.025
G1 F1800 X110.169 Y108.185 E13.68746
G0 F5400 X110.169 Y107.619
G1 F1800 X112.328 Y105.46 E13.78901
G0 F5400 X112.328 Y104.894
G1 F1800 X110.169 Y107.053 E13.89056
G0 F5400 X110.169 Y106.488
G1 F1800 X112.328 Y104.328 E13.99214
G0 F5400 X111.921 Y104.17
G1 F1800 X110.169 Y105.922 E14.07455
G0 F5400 X110.169 Y105.356
G1 F1800 X111.355 Y104.17 E14.13033
G0 F5400 X110.79 Y104.17
G1 F1800 X110.169 Y104.791 E14.15954
G1 X110.099 Y104.861
G1 F2100 E13.35954
G0 F5400 X112.88 Y109.33
G0 X114.165 Y109.33
G0 X135.835 Y109.33
G0 X137.12 Y109.33
G0 X140.33 Y109.33
G0 X140.4 Y109.4
;TYPE:WALL-INNER
G1 F2100 E14.15954
G1 F2700 X137.1 Y109.4 E14.2693
G1 X137.1 Y103.6 E14.46221
G1 X140.4 Y103.6 E14.57197
G1 X140.4 Y109.4 E14.76488
G0 F5400 X140.8 Y109.8
;TYPE:WALL-OUTER
G1 F1800 X136.7 Y109.8 E14.90124
G1 X136.7 Y103.2 E15.12076
G1 X140.8 Y103.2 E15.25713
G1 X140.8 Y109.8 E15.47664
G0 F5400 X140.6 Y109.8
G0 X140.33 Y109.33
G0 X140.01 Y109.01
;TYPE:SKIN
G1 F1800 X137.49 Y109.01 E15.56046
G1 X137.49 Y103.99 E15.72742
G1 X140.01 Y103.99 E15.81124
G1 X140.01 Y109.01 E15.97821
G0 F5400 X139.829 Y108.506
G1 F1800 X139.505 Y108.83 E15.99345
G0 F5400 X138.94 Y108.83
G1 F1800 X139.829 Y107.94 E16.03528
G0 F5400 X139.829 Y107.374
G1 F1800 X138.374 Y108.83 E16.10375
G0 F5400 X137.808 Y108.83
G1 F1800 X139.829 Y106.809 E16.19881
G0 F5400 X139.829 Y106.243
G1 F1800 X137.669 Y108.403 E16.30041
G0 F5400 X137.669 Y107.838
G1 F1800 X139.829 Y105.677 E16.40203
G0 F5400 X139.829 Y105.112
G1 F1800 X137.669 Y107.272 E16.50363
G0 F5400 X137.669 Y106.706
G1 F1800 X139.829 Y104.546 E16.60523
G0 F5400 X139.64 Y104.169
G1 F1800 X137.669 Y106.14 E16.69794
G0 F5400 X137.669 Y105.575
G1 F1800 X139.075 Y104.169 E16.76407
G0 F5400 X138.509 Y104.169
G1 F1800 X137.669 Y105.009 E16.80359
G0 F5400 X137.669 Y104.443
G1 F1800 X137.943 Y104.169 E16.81647
G1 F2100 E16.01647
;MESH:NONMESH
G0 F5400 X137.12 Y109.33
G0 X135.835 Y109.33
G0 X114.165 Y109.33
G0 X112.88 Y109.33
G0 X112.83 Y109.33
G0 X112.9 Y109.4
;TIME_ELAPSED:31.680358
;LAYER:2
;MESH:hexapod_coxa_mirror.stl
G0 F7200 X112.9 Y109.4 Z0.55
;TYPE:WALL-INNER
G1 F2100 E16.81647
G1 F3600 X109.6 Y109.4 E16.92623
G1 X109.6 Y103.6 E17.11914
G1 X112.9 Y103.6 E17.2289
G1 X112.9 Y109.4 E17.42181
G0 F7200 X113.3 Y109.8
;TYPE:WALL-OUTER
G1 F1800 X109.2 Y109.8 E17.55818
G1 X109.2 Y103.2 E17.77769
G1 X113.3 Y103.2 E17.91406
G1 X113.3 Y109.8 E18.13358
G0 F7200 X113.1 Y109.8
G0 X112.83 Y109.33
G0 X112.51 Y109.01
;TYPE:SKIN
G1 F1800 X109.99 Y109.01 E18.21739
G1 X109.99 Y103.99 E18.38436
G1 X112.51 Y103.99 E18.46817
G1 X112.51 Y109.01 E18.63514
G0 F7200 X110.527 Y108.83
G1 F1800 X110.169 Y108.472 E18.65198
G0 F7200 X110.169 Y107.906
G1 F1800 X111.092 Y108.83 E18.69542
G0 F7200 X111.658 Y108.83
G1 F1800 X110.169 Y107.34 E18.76548
G0 F7200 X110.169 Y106.775
G1 F1800 X112.224 Y108.83 E18.86214
G0 F7200 X112.328 Y108.369
G1 F1800 X110.169 Y106.209 E18.96371
G0 F7200 X110.169 Y105.643
G1 F1800 X112.328 Y107.803 E19.06529
G0 F7200 X112.328 Y107.237
G1 F1800 X110.169 Y105.078 E19.16684
G0 F7200 X110.169 Y104.512
G1 F1800 X112.328 Y106.672 E19.26842
G0 F7200 X112.328 Y106.106
G1 F1800 X110.392 Y104.17 E19.35948
G0 F7200 X110.958 Y104.17
G1 F1800 X112.328 Y105.54 E19.42392
G0 F7200 X112.328 Y104.974
G1 F1800 X111.524 Y104.17 E19.46174
G0 F7200 X112.089 Y104.17
G1 F1800 X112.328 Y104.409 E19.47298
G1 F2100 E18.67298
G0 F7200 X112.88 Y109.33
G0 X114.165 Y109.33
G0 X135.835 Y109.33
G0 X137.12 Y109.33
G0 X140.33 Y109.33
G0 X140.4 Y109.4
;TYPE:WALL-INNER
G1 F2100 E19.47298
G1 F3600 X137.1 Y109.4 E19.58274
G1 X137.1 Y103.6 E19.77565
G1 X140.4 Y103.6 E19.88541
G1 X140.4 Y109.4 E20.07832
G0 F7200 X140.8 Y109.8
;TYPE:WALL-OUTER
G1 F1800 X136.7 Y109.8 E20.21468
G1 X136.7 Y103.2 E20.4342
G1 X140.8 Y103.2 E20.57057
G1 X140.8 Y109.8 E20.79009
G0 F7200 X140.6 Y109.8
G0 X140.33 Y109.33
G0 X140.01 Y109.01
;TYPE:SKIN
G1 F1800 X137.49 Y109.01 E20.8739
G1 X137.49 Y103.99 E21.04087
G1 X140.01 Y103.99 E21.12468
G1 X140.01 Y109.01 E21.29165
G0 F7200 X138.245 Y108.83
G1 F1800 X137.668 Y108.253 E21.31879
G0 F7200 X137.668 Y107.687
G1 F1800 X138.811 Y108.83 E21.37255
G0 F7200 X139.377 Y108.83
G1 F1800 X137.668 Y107.121 E21.45294
G0 F7200 X137.668 Y106.556
G1 F1800 X139.829 Y108.716 E21.55456
G0 F7200 X139.829 Y108.151
G1 F1800 X137.668 Y105.99 E21.65621
G0 F7200 X137.668 Y105.424
G1 F1800 X139.829 Y107.585 E21.75785
G0 F7200 X139.829 Y107.019
G1 F1800 X137.668 Y104.858 E21.8595
G0 F7200 X137.668 Y104.293
G1 F1800 X139.829 Y106.454 E21.96115
G0 F7200 X139.829 Y105.888
G1 F1800 X138.111 Y104.17 E22.04196
G0 F7200 X138.677 Y104.17
G1 F1800 X139.829 Y105.322 E22.09614
G0 F7200 X139.829 Y104.757
G1 F1800 X139.242 Y104.17 E22.12375
G1 X139.172 Y104.1
G1 F2100 E21.32375
;MESH:NONMESH
G0 F7200 X137.12 Y109.33
G0 X135.835 Y109.33
G0 X114.165 Y109.33
G0 X112.88 Y109.33
G0 X112.83 Y109.33
G0 X112.9 Y109.4
;TIME_ELAPSED:39.812038
;LAYER:3
;MESH:hexapod_coxa_mirror.stl
G0 X112.9 Y109.4 Z0.75
;TYPE:WALL-INNER
G1 F2100 E22.12375
G1 F3600 X109.6 Y109.4 E22.23351
G1 X109.6 Y103.6 E22.42642
G1 X112.9 Y103.6 E22.53618
G1 X112.9 Y109.4 E22.72909
G0 F7200 X113.3 Y109.8
;TYPE:WALL-OUTER
G1 F1800 X109.2 Y109.8 E22.86546
G1 X109.2 Y103.2 E23.08497
G1 X113.3 Y103.2 E23.22134
G1 X113.3 Y109.8 E23.44086
G0 F7200 X113.1 Y109.8
G0 X112.83 Y109.33
G0 X112.51 Y109.01
;TYPE:SKIN
G1 F1800 X109.99 Y109.01 E23.52467
G1 X109.99 Y103.99 E23.69164
G1 X112.51 Y103.99 E23.77545
G1 X112.51 Y109.01 E23.94242
G0 F7200 X112.328 Y108.288
G1 F1800 X111.787 Y108.83 E23.96789
G0 F7200 X111.221 Y108.83
G1 F1800 X112.328 Y107.722 E24.01998
G0 F7200 X112.328 Y107.157
G1 F1800 X110.655 Y108.83 E24.09868
G0 F7200 X110.169 Y108.75
G1 F1800 X112.328 Y106.591 E24.20023
G0 F7200 X112.328 Y106.025
G1 F1800 X110.169 Y108.185 E24.3018
G0 F7200 X110.169 Y107.619
G1 F1800 X112.328 Y105.46 E24.40336
G0 F7200 X112.328 Y104.894
G1 F1800 X110.169 Y107.053 E24.50491
G0 F7200 X110.169 Y106.488
G1 F1800 X112.328 Y104.328 E24.60649
G0 F7200 X111.921 Y104.17
G1 F1800 X110.169 Y105.922 E24.6889
G0 F7200 X110.169 Y105.356
G1 F1800 X111.355 Y104.17 E24.74468
G0 F7200 X110.79 Y104.17
G1 F1800 X110.169 Y104.791 E24.77389
