;FLAVOR:Marlin
;TIME:8364
;Filament used: 12.6602m
;Layer height: 0.3
;Generated with Cura_SteamEngine 3.6.0
M82 ;absolute extrusion mode
G21 ; set units to millimeters
G90 ; use absolute positioning
M82 ; absolute extrusion mode
M104 S200 ; set extruder temp
M140 S60 ; set bed temp
M190 S60 ; wait for bed temp
M109 S200 ; wait for extruder temp
G28 W ; home all without mesh bed level
G80 ; mesh bed leveling
G92 E0.0 ; reset extruder distance position
G1 Y-3.0 F1000.0 ; go outside print area
G1 X60.0 E9.0 F1000.0 ; intro line
G1 X100.0 E21.5 F1000.0 ; intro line
G92 E0.0 ; reset extruder distance position
G92 E0
G1 F2100 E-0.8
;LAYER_COUNT:11
;LAYER:0
M107
G0 F3600 X71.243 Y32.474 Z0.15
;TYPE:SKIRT
G1 F2100 E0
G1 F1800 X71.548 Y31.945 E0.01523
G1 X72.935 Y29.991 E0.07501
G1 X73.188 Y29.677 E0.08507
G1 X73.713 Y29.106 E0.10441
G1 X73.87 Y28.947 E0.10999
G1 X74.515 Y28.337 E0.13213
G1 X74.759 Y28.128 E0.14015
G1 X76.129 Y27.071 E0.18331
G1 X76.503 Y26.823 E0.19451
G1 X78.022 Y25.96 E0.23809
G1 X78.425 Y25.767 E0.24923
G1 X80.037 Y25.129 E0.29248
G1 X80.459 Y24.995 E0.30352
G1 X82.149 Y24.584 E0.34691
G1 X82.591 Y24.508 E0.3581
G1 X84.347 Y24.335 E0.40211
G1 X84.791 Y24.323 E0.41319
G1 X86.493 Y24.392 E0.45568
G1 X86.935 Y24.441 E0.46678
G1 X88.657 Y24.754 E0.51044
G1 X89.13 Y24.877 E0.52263
G1 X92.865 Y26.168 E0.62121
G1 X98.122 Y27.849 E0.75888
G1 X103.462 Y29.232 E0.89649
G1 X106.076 Y29.788 E0.96315
G1 X111.501 Y30.71 E1.10042
G1 X116.937 Y31.319 E1.23687
G1 X122.401 Y31.62 E1.37338
G1 X127.871 Y31.612 E1.50983
G1 X133.351 Y31.293 E1.64676
G1 X138.788 Y30.667 E1.78328
G1 X144.198 Y29.732 E1.92023
G1 X146.825 Y29.162 E1.98729
G1 X149.485 Y28.506 E2.05563
G1 X154.796 Y26.954 E2.19365
G1 X161.038 Y24.835 E2.35809
G1 X161.423 Y24.73 E2.36804
G1 X162.28 Y24.554 E2.38987
G1 X162.612 Y24.504 E2.39824
G1 X164.37 Y24.332 E2.44231
G1 X164.756 Y24.318 E2.45194
G1 X165.964 Y24.346 E2.48208
G1 X166.349 Y24.378 E2.49172
G1 X168.116 Y24.634 E2.53626
G1 X168.551 Y24.728 E2.54736
G1 X170.19 Y25.205 E2.58994
G1 X170.603 Y25.357 E2.60092
G1 X172.188 Y26.066 E2.64423
G1 X172.583 Y26.277 E2.6554
G1 X174.068 Y27.21 E2.69915
G1 X174.43 Y27.475 E2.71034
G1 X175.763 Y28.6 E2.75385
G1 X176.072 Y28.898 E2.76456
G1 X177.183 Y30.126 E2.80587
G1 X177.463 Y30.484 E2.81721
G1 X178.462 Y31.965 E2.86177
G1 X178.683 Y32.347 E2.87278
G1 X179.443 Y33.899 E2.91589
G1 X179.611 Y34.314 E2.92706
G1 X180.15 Y35.967 E2.97043
G1 X180.258 Y36.395 E2.98144
G1 X180.565 Y38.111 E3.02492
G1 X180.614 Y38.582 E3.03674
G1 X180.848 Y46.65 E3.23808
G1 X181.324 Y52.1 E3.37455
G1 X182.105 Y57.514 E3.511
G1 X183.191 Y62.87 E3.64732
G1 X183.845 Y65.52 E3.71541
G1 X185.393 Y70.803 E3.85273
G1 X187.218 Y75.938 E3.98868
G1 X189.349 Y81.007 E4.12584
G1 X191.75 Y85.921 E4.26227
G1 X194.42 Y90.681 E4.39842
G1 X198.088 Y96.351 E4.56687
G1 X198.192 Y96.524 E4.57191
G1 X199.092 Y98.129 E4.61781
G1 X199.285 Y98.538 E4.62909
G1 X199.91 Y100.151 E4.67224
G1 X200.013 Y100.465 E4.68048
G1 X200.239 Y101.294 E4.70192
G1 X200.314 Y101.646 E4.7109
G1 X200.621 Y103.629 E4.76095
G1 X200.659 Y104.117 E4.77316
G1 X200.66 Y105.875 E4.81701
G1 X200.615 Y106.411 E4.83043
G1 X200.223 Y108.728 E4.88905
G1 X200.097 Y109.225 E4.90184
G1 X199.536 Y110.873 E4.94527
G1 X199.413 Y111.183 E4.95359
G1 X199.055 Y111.959 E4.97491
G1 X198.888 Y112.272 E4.98375
G1 X197.809 Y114.059 E5.03583
G1 X197.751 Y114.152 E5.03856
G1 X195.002 Y118.369 E5.16413
G1 X192.272 Y123.112 E5.30065
G1 X189.811 Y128.004 E5.43725
G1 X187.614 Y133.068 E5.57495
G1 X186.633 Y135.616 E5.64306
G1 X185.75 Y138.13 E5.70952
G1 X184.141 Y143.401 E5.847
G1 X182.831 Y148.762 E5.98466
G1 X182.306 Y151.396 E6.05166
G1 X181.459 Y156.818 E6.18855
G1 X180.922 Y162.276 E6.32536
G1 X180.693 Y167.76 E6.46228
G1 X180.687 Y169.864 E6.51476
G1 X180.681 Y170.055 E6.51953
G1 X180.568 Y171.862 E6.5647
G1 X180.507 Y172.312 E6.57602
G1 X180.147 Y174.046 E6.6202
G1 X180.026 Y174.478 E6.63139
G1 X179.44 Y176.109 E6.67462
G1 X179.26 Y176.516 E6.68572
G1 X178.462 Y178.034 E6.7285
G1 X178.197 Y178.456 E6.74094
G1 X176.832 Y180.289 E6.79795
G1 X176.526 Y180.642 E6.8096
G1 X175.714 Y181.453 E6.83823
G1 X175.447 Y181.692 E6.84717
G1 X174.07 Y182.789 E6.89108
G1 X173.7 Y183.043 E6.90228
G1 X172.196 Y183.929 E6.94582
G1 X171.901 Y184.083 E6.95412
G1 X171.132 Y184.434 E6.97521
G1 X170.827 Y184.555 E6.98339
G1 X169.181 Y185.111 E7.02673
G1 X168.749 Y185.224 E7.03787
G1 X167.039 Y185.546 E7.08128
G1 X166.594 Y185.598 E7.09245
G1 X164.832 Y185.679 E7.13645
G1 X164.383 Y185.668 E7.14766
G1 X162.666 Y185.505 E7.19068
G1 X162.338 Y185.456 E7.19895
G1 X161.507 Y185.289 E7.2201
G1 X161.298 Y185.24 E7.22545
G1 X160.488 Y185.02 E7.24639
G1 X160.245 Y184.944 E7.25274
G1 X157.52 Y183.965 E7.32497
G1 X152.293 Y182.269 E7.46205
G1 X146.927 Y180.856 E7.60047
G1 X144.316 Y180.288 E7.66712
G1 X138.932 Y179.35 E7.80345
G1 X133.462 Y178.713 E7.94082
G1 X128.016 Y178.39 E8.07691
G1 X122.528 Y178.375 E8.21381
G1 X117.083 Y178.668 E8.34983
G1 X111.627 Y179.273 E8.48677
G1 X106.184 Y180.19 E8.62446
G1 X103.605 Y180.738 E8.69023
G1 X98.26 Y182.114 E8.82791
G1 X88.972 Y185.164 E9.07177
G1 X88.518 Y185.277 E9.08344
G1 X86.799 Y185.574 E9.12696
G1 X86.358 Y185.619 E9.13801
G1 X84.64 Y185.675 E9.18089
G1 X84.205 Y185.66 E9.19175
G1 X82.515 Y185.484 E9.23413
G1 X82.005 Y185.389 E9.24708
G1 X79.743 Y184.773 E9.30556
G1 X79.297 Y184.615 E9.31736
G1 X78.216 Y184.14 E9.34681
G1 X77.9 Y183.979 E9.35566
G1 X76.418 Y183.121 E9.39838
G1 X76.052 Y182.874 E9.40939
G1 X74.671 Y181.796 E9.45309
G1 X74.293 Y181.45 E9.46588
G1 X72.729 Y179.763 E9.52326
G1 X72.436 Y179.395 E9.535
G1 X71.777 Y178.433 E9.56408
G1 X71.564 Y178.074 E9.5745
G1 X70.528 Y176.034 E9.63157
G1 X70.317 Y175.508 E9.64571
G1 X69.73 Y173.56 E9.69646
G1 X69.643 Y173.195 E9.70582
G1 X69.492 Y172.342 E9.72743
G1 X69.452 Y172.018 E9.73557
G1 X69.321 Y170.229 E9.78032
G1 X69.312 Y170.039 E9.78506
G1 X69.255 Y165.871 E9.88904
G1 X68.923 Y160.403 E10.0257
G1 X68.281 Y154.967 E10.16224
G1 X67.331 Y149.557 E10.29926
G1 X66.085 Y144.25 E10.43524
G1 X65.349 Y141.616 E10.50346
G1 X63.644 Y136.388 E10.64064
G1 X62.69 Y133.84 E10.7085
G1 X60.553 Y128.79 E10.84529
G1 X58.139 Y123.877 E10.98184
G1 X55.457 Y119.12 E11.11807
G1 X51.725 Y113.365 E11.28917
G1 X51.545 Y113.05 E11.29822
G1 X50.497 Y110.944 E11.3569
G1 X50.297 Y110.439 E11.37045
G1 X49.719 Y108.516 E11.42054
G1 X49.616 Y108.045 E11.43256
G1 X49.375 Y106.349 E11.4753
G1 X49.343 Y105.906 E11.48638
G1 X49.339 Y104.136 E11.53053
G1 X49.367 Y103.705 E11.5413
G1 X49.562 Y102.246 E11.57802
G1 X49.614 Y101.959 E11.5853
G1 X49.814 Y101.081 E11.60776
G1 X49.907 Y100.754 E11.61624
G1 X50.475 Y99.098 E11.65991
G1 X50.639 Y98.706 E11.67051
G1 X51.367 Y97.248 E11.71116
G1 X51.564 Y96.908 E11.72097
G1 X53.527 Y93.951 E11.8095
G1 X56.404 Y89.263 E11.94671
G1 X58.998 Y84.45 E12.0831
G1 X61.322 Y79.481 E12.21994
G1 X63.383 Y74.336 E12.35819
G1 X64.254 Y71.854 E12.42381
G1 X65.864 Y66.58 E12.56136
G1 X67.169 Y61.229 E12.69876
G1 X67.697 Y58.585 E12.76601
G1 X68.541 Y53.169 E12.90275
G1 X69.075 Y47.738 E13.03888
G1 X69.317 Y39.487 E13.24479
G1 X69.343 Y39.169 E13.25275
G1 X69.644 Y36.853 E13.31101
G1 X69.735 Y36.404 E13.32243
G1 X70.11 Y35.062 E13.35719
G1 X70.278 Y34.6 E13.36946
G1 X71.243 Y32.474 E13.4277
G1 F2100 E12.6277
;MESH:hexapod_body_top.stl
G0 F3600 X73.813 Y33.073
G0 X74.899 Y33.746
G0 X81.532 Y34.645
G0 X81.543 Y34.744
;TYPE:WALL-INNER
G1 F2100 E13.4277
G1 F1800 X81.245 Y34.802 E13.43527
G1 X81.077 Y34.859 E13.43969
G1 X80.892 Y34.941 E13.44474
G1 X80.633 Y35.103 E13.45236
G1 X80.434 Y35.275 E13.45892
G1 X80.27 Y35.464 E13.46517
G1 X80.174 Y35.603 E13.46938
G1 X80.078 Y35.771 E13.47421
G1 X80.002 Y35.953 E13.47913
G1 X79.947 Y36.134 E13.48385
G1 X79.913 Y36.299 E13.48805
G1 X79.894 Y36.491 E13.49286
G1 X79.895 Y36.735 E13.49895
G1 X79.922 Y36.934 E13.50396
G1 X79.961 Y37.097 E13.50814
G1 X80.023 Y37.277 E13.51289
G1 X80.105 Y37.454 E13.51775
G1 X80.205 Y37.62 E13.52259
G1 X80.32 Y37.775 E13.5274
G1 X80.458 Y37.92 E13.5324
G1 X80.632 Y38.069 E13.53811
G1 X80.889 Y38.23 E13.54567
G1 X81.076 Y38.314 E13.55079
G1 X81.259 Y38.373 E13.55559
G1 X81.446 Y38.413 E13.56036
G1 X81.608 Y38.431 E13.56442
G1 X81.798 Y38.438 E13.56916
G1 X81.978 Y38.423 E13.57367
G1 X82.271 Y38.361 E13.58114
G1 X82.462 Y38.29 E13.58622
G1 X82.631 Y38.209 E13.5909
G1 X82.776 Y38.121 E13.59513
G1 X82.952 Y37.987 E13.60065
G1 X83.095 Y37.848 E13.60562
G1 X83.234 Y37.679 E13.61108
G1 X83.327 Y37.539 E13.61527
G1 X83.417 Y37.371 E13.62003
G1 X83.49 Y37.191 E13.62487
G1 X83.543 Y37.007 E13.62965
G1 X83.577 Y36.816 E13.63449
G1 X83.589 Y36.653 E13.63857
G1 X83.589 Y36.469 E13.64316
G1 X83.57 Y36.295 E13.64752
G1 X83.528 Y36.108 E13.6523
G1 X83.471 Y35.929 E13.65699
G1 X83.393 Y35.75 E13.66186
G1 X83.297 Y35.583 E13.66666
G1 X83.196 Y35.443 E13.67097
G1 X83.029 Y35.257 E13.67721
G1 X82.838 Y35.096 E13.68344
G1 X82.694 Y35 E13.68776
G1 X82.525 Y34.91 E13.69253
G1 X82.353 Y34.841 E13.69715
G1 X82.209 Y34.796 E13.70092
G1 X81.918 Y34.745 E13.70829
G1 X81.745 Y34.737 E13.71261
G1 X81.543 Y34.744 E13.71765
G0 F3600 X81.532 Y34.645
G0 X80.874 Y34.906
G0 X80.406 Y35.247
G0 X80.043 Y35.754
G0 X79.855 Y36.49
G0 X82.122 Y53.013
G0 X83.741 Y54.89
G0 X85.157 Y56.926
G0 X86.351 Y59.098
G0 X87.311 Y61.383
G0 X88.029 Y63.755
G0 X88.495 Y66.19
G0 X88.705 Y68.662
G0 X88.652 Y71.138
G0 X88.414 Y73.194
G0 X87.996 Y75.219
G0 X87.268 Y77.583
G0 X86.294 Y79.863
G0 X85.088 Y82.029
G0 X83.663 Y84.057
G0 X82.034 Y85.924
G0 X81.005 Y86.881
G0 X62.307 Y103.851
G0 X62.227 Y103.91
G1 F1800 X62.028 Y103.681 E13.72522
G1 X61.914 Y103.577 E13.72907
G1 X61.736 Y103.447 E13.73457
G1 X61.544 Y103.339 E13.74006
G1 X61.37 Y103.264 E13.74479
G1 X61.233 Y103.219 E13.74838
G1 X61.052 Y103.178 E13.75301
G1 X60.888 Y103.156 E13.75714
G1 X60.699 Y103.15 E13.76186
G1 X60.524 Y103.16 E13.76623
G1 X60.229 Y103.217 E13.77373
G1 X60.035 Y103.284 E13.77885
G1 X59.854 Y103.369 E13.78383
G1 X59.62 Y103.517 E13.79074
G1 X59.463 Y103.651 E13.79589
G1 X59.293 Y103.832 E13.80208
G1 X59.16 Y104.017 E13.80777
G1 X59.065 Y104.19 E13.81269
G1 X58.99 Y104.368 E13.81751
G1 X58.935 Y104.549 E13.82223
G1 X58.902 Y104.707 E13.82625
G1 X58.882 Y104.878 E13.83055
G1 X58.882 Y105.136 E13.83698
G1 X58.931 Y105.436 E13.84457
G1 X58.981 Y105.605 E13.84896
G1 X59.053 Y105.783 E13.85375
G1 X59.156 Y105.976 E13.85921
G1 X59.273 Y106.144 E13.86432
G1 X59.442 Y106.331 E13.8706
G1 X59.62 Y106.481 E13.87641
G1 X59.854 Y106.631 E13.88334
G1 X60.036 Y106.716 E13.88836
G1 X60.226 Y106.782 E13.89337
G1 X60.496 Y106.837 E13.90025
G1 X60.696 Y106.85 E13.90525
G1 X60.862 Y106.846 E13.90939
G1 X61.061 Y106.822 E13.91439
G1 X61.354 Y106.743 E13.92196
G1 X61.54 Y106.663 E13.92701
G1 X61.713 Y106.569 E13.93192
G1 X61.9 Y106.433 E13.93769
G1 X62.096 Y106.247 E13.94443
G1 X62.216 Y106.104 E13.94908
G1 X62.375 Y105.848 E13.9566
G1 X62.455 Y105.666 E13.96156
G1 X62.508 Y105.511 E13.96565
G1 X62.545 Y105.355 E13.96965
G1 X62.571 Y105.192 E13.97376
G1 X62.579 Y105.003 E13.97848
G1 X62.573 Y104.837 E13.98263
G1 X62.546 Y104.649 E13.98736
G1 X62.508 Y104.489 E13.99147
G1 X62.455 Y104.334 E13.99555
G1 X62.376 Y104.154 E14.00046
G1 X62.227 Y103.91 E14.00759
G0 F3600 X62.307 Y103.851
G0 X82.614 Y124.696
G0 X84.176 Y126.62
G0 X85.527 Y128.699
G0 X86.656 Y130.906
G0 X87.547 Y133.22
G0 X88.192 Y135.613
G0 X88.583 Y138.06
G0 X88.716 Y140.537
G0 X88.629 Y142.6
G0 X88.289 Y145.055
G0 X87.694 Y147.462
G0 X79.88 Y173.084
G0 X79.874 Y173.713
G0 X80.057 Y174.272
G0 X80.425 Y174.772
G0 X80.941 Y175.1
G0 X81.573 Y175.358
G0 X81.581 Y175.259
G1 F1800 X81.93 Y175.257 E14.01629
G1 X82.211 Y175.204 E14.02343
G1 X82.378 Y175.152 E14.02779
G1 X82.55 Y175.077 E14.03247
G1 X82.696 Y174.999 E14.0366
G1 X82.859 Y174.889 E14.04151
G1 X83.051 Y174.722 E14.04785
G1 X83.214 Y174.534 E14.05406
G1 X83.312 Y174.391 E14.05839
G1 X83.403 Y174.225 E14.06311
G1 X83.48 Y174.048 E14.06792
G1 X83.536 Y173.864 E14.07272
G1 X83.57 Y173.7 E14.0769
G1 X83.589 Y173.512 E14.08161
G1 X83.59 Y173.346 E14.08575
G1 X83.574 Y173.16 E14.09041
G1 X83.544 Y172.994 E14.09462
G1 X83.491 Y172.811 E14.09937
G1 X83.418 Y172.631 E14.10422
G1 X83.328 Y172.463 E14.10897
G1 X83.234 Y172.319 E14.11326
G1 X83.075 Y172.131 E14.1194
G1 X82.929 Y171.994 E14.1244
G1 X82.754 Y171.864 E14.12983
G1 X82.607 Y171.778 E14.13408
G1 X82.437 Y171.699 E14.13876
G1 X82.28 Y171.643 E14.14292
G1 X82.124 Y171.603 E14.14693
G1 X81.962 Y171.576 E14.15103
G1 X81.776 Y171.564 E14.15568
G1 X81.611 Y171.568 E14.1598
G1 X81.421 Y171.59 E14.16457
G1 X81.235 Y171.633 E14.16933
G1 X81.075 Y171.686 E14.17354
G1 X80.89 Y171.77 E14.1786
G1 X80.633 Y171.93 E14.18616
G1 X80.455 Y172.082 E14.19199
G1 X80.307 Y172.244 E14.19747
G1 X80.207 Y172.378 E14.20164
G1 X80.107 Y172.545 E14.20649
G1 X80.025 Y172.719 E14.21129
G1 X79.961 Y172.904 E14.21618
G1 X79.919 Y173.091 E14.22096
G1 X79.896 Y173.263 E14.22529
G1 X79.894 Y173.53 E14.23195
G1 X79.913 Y173.707 E14.23639
G1 X79.955 Y173.894 E14.24117
G1 X80.013 Y174.075 E14.24591
G1 X80.092 Y174.254 E14.25079
G1 X80.188 Y174.419 E14.25555
G1 X80.287 Y174.557 E14.25979
G1 X80.453 Y174.744 E14.26603
G1 X80.633 Y174.898 E14.27193
G1 X80.891 Y175.058 E14.27951
G1 X81.077 Y175.141 E14.28459
G1 X81.27 Y175.204 E14.28965
G1 X81.581 Y175.259 E14.29753
G0 F3600 X81.573 Y175.358
G0 X103.49 Y170.189
G0 X106.76 Y168.462
G0 X109.474 Y167.289
G0 X112.266 Y166.307
G0 X115.118 Y165.521
G0 X118.747 Y164.821
G0 X122.424 Y164.437
G0 X125.38 Y164.363
G0 X128.335 Y164.493
G0 X131.273 Y164.825
G0 X134.904 Y165.528
G0 X138.457 Y166.543
G0 X141.23 Y167.574
G0 X144.584 Y169.129
G0 X147.162 Y170.58
G0 X147.862 Y171.04
G0 X168.468 Y175.355
G0 X168.457 Y175.256
G1 F1800 X168.755 Y175.198 E14.3051
G1 X168.923 Y175.141 E14.30953
G1 X169.108 Y175.059 E14.31458
G1 X169.367 Y174.897 E14.3222
G1 X169.566 Y174.725 E14.32876
G1 X169.73 Y174.536 E14.335
G1 X169.826 Y174.397 E14.33922
G1 X169.922 Y174.229 E14.34404
G1 X169.998 Y174.047 E14.34896
G1 X170.053 Y173.866 E14.35368
G1 X170.087 Y173.701 E14.35788
G1 X170.106 Y173.509 E14.3627
G1 X170.105 Y173.265 E14.36878
G1 X170.078 Y173.066 E14.37379
G1 X170.039 Y172.903 E14.37797
G1 X169.977 Y172.723 E14.38272
G1 X169.895 Y172.546 E14.38759
G1 X169.795 Y172.38 E14.39242
G1 X169.68 Y172.225 E14.39724
G1 X169.542 Y172.08 E14.40223
G1 X169.368 Y171.931 E14.40794
G1 X169.111 Y171.77 E14.41551
G1 X168.924 Y171.686 E14.42062
G1 X168.741 Y171.627 E14.42542
G1 X168.554 Y171.587 E14.43019
G1 X168.392 Y171.569 E14.43426
G1 X168.202 Y171.562 E14.439
G1 X168.022 Y171.577 E14.4435
G1 X167.729 Y171.639 E14.45098
G1 X167.538 Y171.71 E14.45606
G1 X167.369 Y171.791 E14.46073
G1 X167.224 Y171.879 E14.46496
G1 X167.048 Y172.013 E14.47048
G1 X166.905 Y172.152 E14.47546
G1 X166.766 Y172.321 E14.48092
G1 X166.673 Y172.461 E14.48511
G1 X166.583 Y172.629 E14.48986
G1 X166.51 Y172.809 E14.49471
G1 X166.457 Y172.993 E14.49948
G1 X166.423 Y173.184 E14.50432
G1 X166.411 Y173.347 E14.5084
G1 X166.411 Y173.531 E14.51299
G1 X166.43 Y173.705 E14.51736
G1 X166.472 Y173.892 E14.52214
G1 X166.529 Y174.071 E14.52682
G1 X166.607 Y174.25 E14.53169
G1 X166.703 Y174.417 E14.5365
G1 X166.804 Y174.557 E14.54081
G1 X166.971 Y174.743 E14.54704
G1 X167.162 Y174.904 E14.55327
G1 X167.306 Y175 E14.55759
G1 X167.475 Y175.09 E14.56237
G1 X167.647 Y175.159 E14.56699
G1 X167.791 Y175.204 E14.57075
G1 X168.082 Y175.255 E14.57812
G1 X168.255 Y175.263 E14.58244
G1 X168.457 Y175.256 E14.58748
G0 F3600 X168.468 Y175.355
G0 X169.126 Y175.094
G0 X169.594 Y174.753
G0 X169.957 Y174.246
G0 X170.145 Y173.51
G0 X168.174 Y157.292
G0 X166.521 Y155.444
G0 X165.071 Y153.433
G0 X163.838 Y151.283
G0 X162.835 Y149.016
G0 X162.076 Y146.656
G0 X161.566 Y144.231
G0 X161.313 Y141.763
G0 X161.318 Y139.288
G0 X161.521 Y137.23
G0 X161.999 Y134.796
G0 X162.727 Y132.427
G0 X163.701 Y130.147
G0 X164.905 Y127.981
G0 X166.33 Y125.952
G0 X167.958 Y124.084
G0 X168.987 Y123.127
G0 X187.692 Y106.148
G0 X187.772 Y106.089
G1 F1800 X187.971 Y106.318 E14.59505
G1 X188.085 Y106.422 E14.5989
G1 X188.263 Y106.552 E14.6044
