;FLAVOR:Marlin
;TIME:2194
;Filament used: 1.8472m
;Layer height: 0.2
;Generated with Cura_SteamEngine 3.6.0
M82 ;absolute extrusion mode
G21 ; set units to millimeters
G90 ; use absolute positioning
M82 ; absolute extrusion mode
M104 S200 ; set extruder temp
M140 S60 ; set bed temp
M190 S60 ; wait for bed temp
M109 S200 ; wait for extruder temp
G28 W ; home all without mesh bed level
G80 ; mesh bed leveling
G92 E0.0 ; reset extruder distance position
G1 Y-3.0 F1000.0 ; go outside print area
G1 X60.0 E9.0 F1000.0 ; intro line
G1 X100.0 E21.5 F1000.0 ; intro line
G92 E0.0 ; reset extruder distance position
G92 E0
G1 F2100 E-0.8
;LAYER_COUNT:146
;LAYER:0
M107
G0 F3600 X105.968 Y97.41 Z0.15
;TYPE:SKIRT
G1 F2100 E0
G1 F1800 X106.365 Y97.007 E0.01411
G1 X106.815 Y96.665 E0.02821
G1 X107.308 Y96.389 E0.0423
G1 X107.836 Y96.185 E0.05642
G1 X108.386 Y96.058 E0.07051
G1 X109.013 Y96.009 E0.08619
G1 X113.538 Y96.013 E0.19907
G1 X113.857 Y96.026 E0.20703
G1 X119.806 Y96.509 E0.35592
G1 X125.233 Y96.637 E0.49134
G1 X130.668 Y96.458 E0.62699
G1 X135.663 Y96.024 E0.75206
G1 X136.011 Y96.009 E0.76075
G1 X140.992 Y96.01 E0.885
G1 X141.556 Y96.05 E0.8991
G1 X142.108 Y96.169 E0.91319
G1 X142.639 Y96.365 E0.92731
G1 X143.136 Y96.634 E0.9414
G1 X143.591 Y96.97 E0.95551
G1 X143.993 Y97.367 E0.96961
G1 X144.336 Y97.816 E0.9837
G1 X144.612 Y98.31 E0.99782
G1 X144.815 Y98.837 E1.0119
G1 X144.942 Y99.388 E1.02601
G1 X144.991 Y100.01 E1.04157
G1 X144.991 Y106.991 E1.21572
G1 X144.951 Y107.555 E1.22982
G1 X144.832 Y108.108 E1.24393
G1 X144.636 Y108.638 E1.25803
G1 X144.368 Y109.135 E1.27211
G1 X144.032 Y109.59 E1.28622
G1 X143.635 Y109.993 E1.30033
G1 X143.185 Y110.335 E1.31443
G1 X142.692 Y110.611 E1.32853
G1 X142.164 Y110.815 E1.34265
G1 X141.614 Y110.942 E1.35673
G1 X140.988 Y110.991 E1.37239
G1 X135.963 Y110.987 E1.49774
G1 X135.643 Y110.974 E1.50573
G1 X129.694 Y110.491 E1.65461
G1 X124.267 Y110.363 E1.79003
G1 X118.832 Y110.542 E1.92568
G1 X113.837 Y110.976 E2.05075
G1 X113.489 Y110.991 E2.05944
G1 X109.008 Y110.99 E2.17122
G1 X108.444 Y110.95 E2.18532
G1 X107.892 Y110.831 E2.19941
G1 X107.361 Y110.635 E2.21353
G1 X106.864 Y110.366 E2.22762
G1 X106.409 Y110.03 E2.24173
G1 X106.007 Y109.633 E2.25583
G1 X105.664 Y109.183 E2.26994
G1 X105.388 Y108.69 E2.28404
G1 X105.185 Y108.163 E2.29812
G1 X105.058 Y107.612 E2.31223
G1 X105.009 Y106.99 E2.32779
G1 X105.009 Y100.009 E2.50193
G1 X105.049 Y99.445 E2.51604
G1 X105.168 Y98.892 E2.53015
G1 X105.364 Y98.362 E2.54425
G1 X105.632 Y97.865 E2.55833
G1 X105.968 Y97.41 E2.57244
G0 F3600 X106.364 Y97.567
G1 F1800 X106.756 Y97.201 E2.58582
G1 X107.198 Y96.898 E2.59919
G1 X107.681 Y96.663 E2.61258
G1 X108.192 Y96.503 E2.62594
G1 X108.722 Y96.42 E2.63932
G1 X109.012 Y96.409 E2.64656
G1 X113.537 Y96.413 E2.75944
G1 X113.825 Y96.425 E2.76663
G1 X119.782 Y96.908 E2.91572
G1 X125.237 Y97.038 E3.05183
G1 X130.697 Y96.858 E3.1881
G1 X135.698 Y96.423 E3.31333
G1 X136.011 Y96.409 E3.32114
G1 X140.992 Y96.41 E3.44539
G1 X141.527 Y96.45 E3.45878
G1 X142.049 Y96.569 E3.47213
G1 X142.549 Y96.765 E3.48553
G1 X143.014 Y97.032 E3.4989
G1 X143.434 Y97.365 E3.51227
G1 X143.799 Y97.758 E3.52565
G1 X144.103 Y98.2 E3.53904
G1 X144.337 Y98.682 E3.5524
G1 X144.497 Y99.194 E3.56578
G1 X144.58 Y99.724 E3.57916
G1 X144.591 Y100.01 E3.5863
G1 X144.591 Y106.991 E3.76045
G1 X144.551 Y107.526 E3.77383
G1 X144.432 Y108.049 E3.78721
G1 X144.237 Y108.548 E3.80057
G1 X143.969 Y109.013 E3.81396
G1 X143.636 Y109.433 E3.82733
G1 X143.244 Y109.799 E3.84071
G1 X142.802 Y110.102 E3.85408
G1 X142.319 Y110.337 E3.86748
G1 X141.808 Y110.497 E3.88083
G1 X141.278 Y110.58 E3.89421
G1 X140.988 Y110.591 E3.90145
G1 X135.963 Y110.587 E4.0268
G1 X135.675 Y110.575 E4.03399
G1 X129.718 Y110.092 E4.18308
G1 X124.263 Y109.962 E4.31919
G1 X118.803 Y110.142 E4.45547
G1 X113.802 Y110.577 E4.58069
G1 X113.489 Y110.591 E4.5885
G1 X109.008 Y110.59 E4.70028
G1 X108.473 Y110.55 E4.71367
G1 X107.951 Y110.431 E4.72702
G1 X107.451 Y110.235 E4.74042
G1 X106.986 Y109.968 E4.75379
G1 X106.566 Y109.634 E4.76718
G1 X106.201 Y109.242 E4.78054
G1 X105.897 Y108.8 E4.79392
G1 X105.663 Y108.318 E4.80729
G1 X105.503 Y107.806 E4.82067
G1 X105.42 Y107.276 E4.83405
G1 X105.409 Y106.99 E4.84119
G1 X105.409 Y100.009 E5.01533
G1 X105.449 Y99.474 E5.02872
G1 X105.568 Y98.951 E5.0421
G1 X105.763 Y98.452 E5.05546
G1 X106.031 Y97.987 E5.06885
G1 X106.364 Y97.567 E5.08222
G0 F3600 X106.428 Y98.117
G1 F1800 X106.758 Y97.734 E5.09483
G1 X107.145 Y97.408 E5.10745
G1 X107.578 Y97.147 E5.12006
G1 X108.046 Y96.957 E5.13266
G1 X108.539 Y96.844 E5.14528
G1 X109.012 Y96.809 E5.15711
G1 X113.537 Y96.813 E5.26999
G1 X113.793 Y96.823 E5.27638
G1 X119.776 Y97.308 E5.42611
G1 X125.24 Y97.438 E5.56245
G1 X130.708 Y97.258 E5.69893
G1 X135.733 Y96.821 E5.82475
G1 X136.011 Y96.809 E5.83169
G1 X140.992 Y96.81 E5.95594
G1 X141.496 Y96.85 E5.96855
G1 X141.987 Y96.969 E5.98116
G1 X142.454 Y97.164 E5.99378
G1 X142.884 Y97.43 E6.00639
G1 X143.266 Y97.76 E6.01899
G1 X143.592 Y98.146 E6.03159
G1 X143.853 Y98.579 E6.0442
G1 X144.043 Y99.048 E6.05682
G1 X144.156 Y99.541 E6.06944
G1 X144.191 Y100.01 E6.08117
G1 X144.191 Y106.991 E6.25531
G1 X144.151 Y107.495 E6.26793
G1 X144.032 Y107.986 E6.28053
G1 X143.838 Y108.453 E6.29314
G1 X143.572 Y108.883 E6.30576
G1 X143.242 Y109.266 E6.31837
G1 X142.855 Y109.592 E6.33099
G1 X142.422 Y109.853 E6.3436
G1 X141.954 Y110.043 E6.3562
G1 X141.461 Y110.156 E6.36882
G1 X140.988 Y110.191 E6.38065
G1 X135.963 Y110.187 E6.506
G1 X135.707 Y110.177 E6.51239
G1 X129.724 Y109.692 E6.66213
G1 X124.26 Y109.562 E6.79846
G1 X118.792 Y109.742 E6.93494
G1 X113.767 Y110.179 E7.06076
G1 X113.489 Y110.191 E7.0677
G1 X109.008 Y110.19 E7.17948
G1 X108.504 Y110.15 E7.19209
G1 X108.013 Y110.031 E7.20469
G1 X107.546 Y109.836 E7.21732
G1 X107.116 Y109.57 E7.22993
G1 X106.734 Y109.24 E7.24252
G1 X106.408 Y108.854 E7.25513
G1 X106.147 Y108.421 E7.26774
G1 X105.957 Y107.952 E7.28036
G1 X105.844 Y107.459 E7.29298
G1 X105.809 Y106.99 E7.30471
G1 X105.809 Y100.009 E7.47885
G1 X105.849 Y99.505 E7.49146
G1 X105.968 Y99.014 E7.50407
G1 X106.162 Y98.547 E7.51668
G1 X106.428 Y98.117 E7.52929
G1 F2100 E6.72929
;MESH:hexapod_coxa.stl
G0 F3600 X108.335 Y100.614
G0 X109.614 Y100.614
G0 X112.83 Y106.33
G0 X112.9 Y106.4
;TYPE:WALL-INNER
G1 F2100 E7.52929
G1 F1800 X109.6 Y106.4 E7.61161
G1 X109.6 Y100.6 E7.75629
G1 X112.9 Y100.6 E7.83861
G1 X112.9 Y106.4 E7.9833
G0 F3600 X113.3 Y106.8
;TYPE:WALL-OUTER
G1 F1800 X109.2 Y106.8 E8.08557
G1 X109.2 Y100.2 E8.25021
G1 X113.3 Y100.2 E8.35248
G1 X113.3 Y106.8 E8.51712
G0 F3600 X113.1 Y106.8
G0 X112.83 Y106.33
G0 X112.51 Y106.01
;TYPE:SKIN
G1 F1800 X109.99 Y106.01 E8.57998
G1 X109.99 Y100.99 E8.70521
G1 X112.51 Y100.99 E8.76807
G1 X112.51 Y106.01 E8.89329
G0 F3600 X110.355 Y105.829
G1 F1800 X110.168 Y105.643 E8.89987
G0 F3600 X110.168 Y105.077
G1 F1800 X110.921 Y105.829 E8.92642
G0 F3600 X111.486 Y105.829
G1 F1800 X110.168 Y104.511 E8.97291
G0 F3600 X110.168 Y103.946
G1 F1800 X112.052 Y105.829 E9.03936
G0 F3600 X112.329 Y105.541
G1 F1800 X110.168 Y103.38 E9.11559
G0 F3600 X110.168 Y102.814
G1 F1800 X112.329 Y104.975 E9.19183
G0 F3600 X112.329 Y104.409
G1 F1800 X110.168 Y102.249 E9.26805
G0 F3600 X110.168 Y101.683
G1 F1800 X112.329 Y103.844 E9.34428
G0 F3600 X112.329 Y103.278
G1 F1800 X110.22 Y101.17 E9.41867
G0 F3600 X110.786 Y101.17
G1 F1800 X112.329 Y102.712 E9.47308
G0 F3600 X112.329 Y102.147
G1 F1800 X111.352 Y101.17 E9.50755
G0 F3600 X111.918 Y101.17
G1 F1800 X112.329 Y101.581 E9.52205
G1 F2100 E8.72205
G0 F3600 X112.88 Y106.33
G0 X114.165 Y106.33
G0 X135.335 Y106.33
G0 X136.62 Y106.33
G0 X140.33 Y106.33
G0 X140.4 Y106.4
;TYPE:WALL-INNER
G1 F2100 E9.52205
G1 F1800 X136.6 Y106.4 E9.61684
G1 X136.6 Y100.6 E9.76152
G1 X140.4 Y100.6 E9.85631
G1 X140.4 Y106.4 E10.00099
G0 F3600 X140.8 Y106.8
;TYPE:WALL-OUTER
G1 F1800 X136.2 Y106.8 E10.11574
G1 X136.2 Y100.2 E10.28038
G1 X140.8 Y100.2 E10.39513
G1 X140.8 Y106.8 E10.55976
G0 F3600 X140.6 Y106.8
G0 X140.33 Y106.33
G0 X140.01 Y106.01
;TYPE:SKIN
G1 F1800 X136.99 Y106.01 E10.6351
G1 X136.99 Y100.99 E10.76032
G1 X140.01 Y100.99 E10.83566
G1 X140.01 Y106.01 E10.96088
G0 F3600 X137.508 Y105.829
G1 F1800 X137.168 Y105.49 E10.97286
G0 F3600 X137.168 Y104.924
G1 F1800 X138.073 Y105.829 E11.00478
G0 F3600 X138.639 Y105.829
G1 F1800 X137.168 Y104.359 E11.05666
G0 F3600 X137.168 Y103.793
G1 F1800 X139.205 Y105.829 E11.1285
G0 F3600 X139.77 Y105.829
G1 F1800 X137.168 Y103.227 E11.22029
G0 F3600 X137.168 Y102.662
G1 F1800 X139.828 Y105.322 E11.31413
G0 F3600 X139.828 Y104.756
G1 F1800 X137.168 Y102.096 E11.40797
G0 F3600 X137.168 Y101.53
G1 F1800 X139.828 Y104.19 E11.50181
G0 F3600 X139.828 Y103.625
G1 F1800 X137.373 Y101.17 E11.58842
G0 F3600 X137.939 Y101.17
G1 F1800 X139.828 Y103.059 E11.65506
G0 F3600 X139.828 Y102.493
G1 F1800 X138.505 Y101.17 E11.70173
G0 F3600 X139.07 Y101.17
G1 F1800 X139.828 Y101.928 E11.72847
G0 F3600 X139.828 Y101.362
M104 S200
G1 F1800 X139.636 Y101.17 E11.73524
G1 F2100 E10.93524
;MESH:NONMESH
G0 F3600 X136.62 Y106.33
G0 X135.335 Y106.33
G0 X114.165 Y106.33
G0 X112.88 Y106.33
G0 X112.83 Y106.33
G0 X112.9 Y106.4
;TIME_ELAPSED:23.862270
;LAYER:1
M140 S60
M106 S255
;MESH:hexapod_coxa.stl
G0 F5400 X112.9 Y106.4 Z0.35
;TYPE:WALL-INNER
G1 F2100 E11.73524
G1 F2700 X109.6 Y106.4 E11.845
G1 X109.6 Y100.6 E12.03791
G1 X112.9 Y100.6 E12.14767
G1 X112.9 Y106.4 E12.34058
G0 F5400 X113.3 Y106.8
;TYPE:WALL-OUTER
G1 F1800 X109.2 Y106.8 E12.47694
G1 X109.2 Y100.2 E12.69646
G1 X113.3 Y100.2 E12.83283
G1 X113.3 Y106.8 E13.05234
G0 F5400 X113.1 Y106.8
G0 X112.83 Y106.33
G0 X112.51 Y106.01
;TYPE:SKIN
G1 F1800 X109.99 Y106.01 E13.13616
G1 X109.99 Y100.99 E13.30313
G1 X112.51 Y100.99 E13.38694
G1 X112.51 Y106.01 E13.55391
G0 F5400 X112.329 Y105.459
G1 F1800 X111.958 Y105.83 E13.57136
G0 F5400 X111.392 Y105.83
G1 F1800 X112.329 Y104.893 E13.61543
G0 F5400 X112.329 Y104.327
G1 F1800 X110.826 Y105.83 E13.68613
G0 F5400 X110.261 Y105.83
G1 F1800 X112.329 Y103.762 E13.7834
G0 F5400 X112.329 Y103.196
G1 F1800 X110.169 Y105.356 E13.885
G0 F5400 X110.169 Y104.791
G1 F1800 X112.329 Y102.63 E13.98662
G0 F5400 X112.329 Y102.065
G1 F1800 X110.169 Y104.225 E14.08822
G0 F5400 X110.169 Y103.659
G1 F1800 X112.329 Y101.499 E14.18982
G0 F5400 X112.093 Y101.17
G1 F1800 X110.169 Y103.094 E14.28032
G0 F5400 X110.169 Y102.528
G1 F1800 X111.527 Y101.17 E14.3442
G0 F5400 X110.962 Y101.17
G1 F1800 X110.169 Y101.962 E14.38148
G0 F5400 X110.169 Y101.396
G1 F1800 X110.396 Y101.17 E14.39213
G1 F2100 E13.59213
G0 F5400 X112.88 Y106.33
G0 X114.165 Y106.33
G0 X135.335 Y106.33
G0 X136.62 Y106.33
G0 X140.33 Y106.33
G0 X140.4 Y106.4
;TYPE:WALL-INNER
G1 F2100 E14.39213
G1 F2700 X136.6 Y106.4 E14.51852
G1 X136.6 Y100.6 E14.71143
G1 X140.4 Y100.6 E14.83782
G1 X140.4 Y106.4 E15.03072
G0 F5400 X140.8 Y106.8
;TYPE:WALL-OUTER
G1 F1800 X136.2 Y106.8 E15.18372
G1 X136.2 Y100.2 E15.40324
G1 X140.8 Y100.2 E15.55623
G1 X140.8 Y106.8 E15.77575
G0 F5400 X140.6 Y106.8
G0 X140.33 Y106.33
G0 X140.01 Y106.01
;TYPE:SKIN
G1 F1800 X136.99 Y106.01 E15.8762
G1 X136.99 Y100.99 E16.04316
G1 X140.01 Y100.99 E16.14361
G1 X140.01 Y106.01 E16.31057
G0 F5400 X139.828 Y105.678
G1 F1800 X139.677 Y105.829 E16.31768
G0 F5400 X139.111 Y105.829
G1 F1800 X139.828 Y105.112 E16.3514
G0 F5400 X139.828 Y104.547
G1 F1800 X138.546 Y105.829 E16.4117
G0 F5400 X137.98 Y105.829
G1 F1800 X139.828 Y103.981 E16.49863
G0 F5400 X139.828 Y103.415
G1 F1800 X137.414 Y105.829 E16.61217
G0 F5400 X137.168 Y105.51
G1 F1800 X139.828 Y102.85 E16.73729
G0 F5400 X139.828 Y102.284
G1 F1800 X137.168 Y104.944 E16.86241
G0 F5400 X137.168 Y104.378
G1 F1800 X139.828 Y101.718 E16.98753
G0 F5400 X139.811 Y101.17
G1 F1800 X137.168 Y103.813 E17.11185
G0 F5400 X137.168 Y103.247
G1 F1800 X139.246 Y101.17 E17.20957
G0 F5400 X138.68 Y101.17
G1 F1800 X137.168 Y102.681 E17.28066
G0 F5400 X137.168 Y102.116
G1 F1800 X138.114 Y101.17 E17.32516
G0 F5400 X137.549 Y101.17
G1 F1800 X137.168 Y101.55 E17.34306
G1 F2100 E16.54306
;MESH:NONMESH
G0 F5400 X136.62 Y106.33
G0 X135.335 Y106.33
G0 X114.165 Y106.33
G0 X112.88 Y106.33
G0 X112.83 Y106.33
G0 X112.9 Y106.4
;TIME_ELAPSED:32.423731
;LAYER:2
;MESH:hexapod_coxa.stl
G0 F7200 X112.9 Y106.4 Z0.55
;TYPE:WALL-INNER
G1 F2100 E17.34306
G1 F3600 X109.6 Y106.4 E17.45282
G1 X109.6 Y100.6 E17.64573
G1 X112.9 Y100.6 E17.75548
G1 X112.9 Y106.4 E17.94839
G0 F7200 X113.3 Y106.8
;TYPE:WALL-OUTER
G1 F1800 X109.2 Y106.8 E18.08476
G1 X109.2 Y100.2 E18.30428
G1 X113.3 Y100.2 E18.44064
G1 X113.3 Y106.8 E18.66016
G0 F7200 X113.1 Y106.8
G0 X112.83 Y106.33
G0 X112.51 Y106.01
;TYPE:SKIN
G1 F1800 X109.99 Y106.01 E18.74398
G1 X109.99 Y100.99 E18.91094
G1 X112.51 Y100.99 E18.99476
G1 X112.51 Y106.01 E19.16172
G0 F7200 X110.355 Y105.829
G1 F1800 X110.168 Y105.643 E19.17049
G0 F7200 X110.168 Y105.077
G1 F1800 X110.921 Y105.829 E19.20589
G0 F7200 X111.486 Y105.829
G1 F1800 X110.168 Y104.511 E19.26788
G0 F7200 X110.168 Y103.946
G1 F1800 X112.052 Y105.829 E19.35648
G0 F7200 X112.329 Y105.541
G1 F1800 X110.168 Y103.38 E19.45813
G0 F7200 X110.168 Y102.814
G1 F1800 X112.329 Y104.975 E19.55977
G0 F7200 X112.329 Y104.409
G1 F1800 X110.168 Y102.249 E19.6614
G0 F7200 X110.168 Y101.683
G1 F1800 X112.329 Y103.844 E19.76304
G0 F7200 X112.329 Y103.278
G1 F1800 X110.22 Y101.17 E19.86222
G0 F7200 X110.786 Y101.17
G1 F1800 X112.329 Y102.712 E19.93477
G0 F7200 X112.329 Y102.147
G1 F1800 X111.352 Y101.17 E19.98073
G0 F7200 X111.918 Y101.17
G1 F1800 X112.329 Y101.581 E20.00006
G1 F2100 E19.20006
G0 F7200 X112.88 Y106.33
G0 X114.165 Y106.33
G0 X135.335 Y106.33
G0 X136.62 Y106.33
G0 X140.33 Y106.33
G0 X140.4 Y106.4
;TYPE:WALL-INNER
G1 F2100 E20.00006
G1 F3600 X136.6 Y106.4 E20.12645
G1 X136.6 Y100.6 E20.31936
G1 X140.4 Y100.6 E20.44575
G1 X140.4 Y106.4 E20.63866
G0 F7200 X140.8 Y106.8
;TYPE:WALL-OUTER
G1 F1800 X136.2 Y106.8 E20.79165
G1 X136.2 Y100.2 E21.01117
G1 X140.8 Y100.2 E21.16417
G1 X140.8 Y106.8 E21.38368
G0 F7200 X140.6 Y106.8
G0 X140.33 Y106.33
G0 X140.01 Y106.01
;TYPE:SKIN
G1 F1800 X136.99 Y106.01 E21.48413
G1 X136.99 Y100.99 E21.65109
G1 X140.01 Y100.99 E21.75154
G1 X140.01 Y106.01 E21.91851
G0 F7200 X137.508 Y105.829
G1 F1800 X137.168 Y105.49 E21.93448
G0 F7200 X137.168 Y104.924
G1 F1800 X138.073 Y105.829 E21.97704
G0 F7200 X138.639 Y105.829
G1 F1800 X137.168 Y104.359 E22.04621
G0 F7200 X137.168 Y103.793
G1 F1800 X139.205 Y105.829 E22.142
G0 F7200 X139.77 Y105.829
G1 F1800 X137.168 Y103.227 E22.26439
G0 F7200 X137.168 Y102.662
G1 F1800 X139.828 Y105.322 E22.38951
G0 F7200 X139.828 Y104.756
G1 F1800 X137.168 Y102.096 E22.51463
G0 F7200 X137.168 Y101.53
G1 F1800 X139.828 Y104.19 E22.63975
G0 F7200 X139.828 Y103.625
G1 F1800 X137.373 Y101.17 E22.75522
G0 F7200 X137.939 Y101.17
G1 F1800 X139.828 Y103.059 E22.84408
G0 F7200 X139.828 Y102.493
G1 F1800 X138.505 Y101.17 E22.90631
G0 F7200 X139.07 Y101.17
G1 F1800 X139.828 Y101.928 E22.94196
G0 F7200 X139.828 Y101.362
G1 F1800 X139.636 Y101.17 E22.95099
G1 F2100 E22.15099
;MESH:NONMESH
G0 F7200 X136.62 Y106.33
G0 X135.335 Y106.33
G0 X114.165 Y106.33
G0 X112.88 Y106.33
G0 X112.83 Y106.33
G0 X112.9 Y106.4
;TIME_ELAPSED:40.953798
;LAYER:3
;MESH:hexapod_coxa.stl
G0 X112.9 Y106.4 Z0.75
;TYPE:WALL-INNER
G1 F2100 E22.95099
G1 F3600 X109.6 Y106.4 E23.06075
G1 X109.6 Y100.6 E23.25366
G1 X112.9 Y100.6 E23.36342
G1 X112.9 Y106.4 E23.55633
G0 F7200 X113.3 Y106.8
;TYPE:WALL-OUTER
G1 F1800 X109.2 Y106.8 E23.69269
G1 X109.2 Y100.2 E23.91221
G1 X113.3 Y100.2 E24.04858
G1 X113.3 Y106.8 E24.26809
G0 F7200 X113.1 Y106.8
G0 X112.83 Y106.33
G0 X112.51 Y106.01
;TYPE:SKIN
G1 F1800 X109.99 Y106.01 E24.35191
G1 X109.99 Y100.99 E24.51887
G1 X112.51 Y100.99 E24.60269
G1 X112.51 Y106.01 E24.76965
G0 F7200 X112.329 Y105.459
G1 F1800 X111.958 Y105.83 E24.78711
G0 F7200 X111.392 Y105.83
G1 F1800 X112.329 Y104.893 E24.83118
G0 F7200 X112.329 Y104.327
G1 F1800 X110.826 Y105.83 E24.90188
G0 F7200 X110.261 Y105.83
G1 F1800 X112.329 Y103.762 E24.99915
G0 F7200 X112.329 Y103.196
G1 F1800 X110.169 Y105.356 E25.10075
G0 F7200 X110.169 Y104.791
G1 F1800 X112.329 Y102.63 E25.20237
G0 F7200 X112.329 Y102.065
