;FLAVOR:Marlin
;TIME:907
;Filament used: 0.766401m
;Layer height: 0.2
;Generated with Cura_SteamEngine 3.6.0
M82 ;absolute extrusion mode
G21 ; set units to millimeters
G90 ; use absolute positioning
M82 ; absolute extrusion mode
M104 S200 ; set extruder temp
M140 S60 ; set bed temp
M190 S60 ; wait for bed temp
M109 S200 ; wait for extruder temp
G28 W ; home all without mesh bed level
G80 ; mesh bed leveling
G92 E0.0 ; reset extruder distance position
G1 Y-3.0 F1000.0 ; go outside print area
G1 X60.0 E9.0 F1000.0 ; intro line
G1 X100.0 E21.5 F1000.0 ; intro line
G92 E0.0 ; reset extruder distance position
G92 E0
G1 F2100 E-0.8
;LAYER_COUNT:16
;LAYER:0
M107
G0 F3600 X116.92 Y77.197 Z0.15
;TYPE:SKIRT
G1 F2100 E0
G1 F1800 X117.025 Y77.04 E0.00471
G1 X118.02 Y75.632 E0.04772
G1 X118.131 Y75.484 E0.05233
G1 X120.271 Y72.764 E0.13867
G1 X120.39 Y72.62 E0.14333
G1 X121.501 Y71.35 E0.18542
G1 X121.59 Y71.252 E0.18872
G1 X122.875 Y69.887 E0.23549
G1 X123.136 Y69.636 E0.24452
G1 X123.962 Y68.919 E0.2718
G1 X124.462 Y68.555 E0.28723
G1 X125.823 Y67.734 E0.32688
G1 X126.389 Y67.458 E0.34259
G1 X127.43 Y67.057 E0.37042
G1 X127.919 Y66.907 E0.38317
G1 X128.974 Y66.665 E0.41017
G1 X129.565 Y66.58 E0.42507
G1 X131.108 Y66.488 E0.46363
G1 X131.829 Y66.518 E0.48163
G1 X133.292 Y66.726 E0.51849
G1 X133.773 Y66.828 E0.53076
G1 X134.505 Y67.037 E0.54975
G1 X135.076 Y67.254 E0.56498
G1 X136.691 Y68.03 E0.60968
G1 X137.32 Y68.416 E0.62809
G1 X138.386 Y69.232 E0.66158
G1 X138.895 Y69.706 E0.67893
G1 X140.028 Y70.987 E0.72159
G1 X140.441 Y71.558 E0.73916
G1 X141.096 Y72.681 E0.7716
G1 X141.38 Y73.295 E0.78847
G1 X141.903 Y74.774 E0.8276
G1 X142.051 Y75.328 E0.84191
G1 X142.183 Y76.052 E0.86027
G1 X142.237 Y76.531 E0.87229
G1 X142.291 Y77.695 E0.90136
G1 X142.248 Y78.439 E0.91995
G1 X141.979 Y80.096 E0.96182
G1 X141.865 Y80.585 E0.97435
G1 X140.396 Y85.326 E1.09816
G1 X139.036 Y90.613 E1.23434
G1 X138.466 Y93.286 E1.30251
G1 X137.981 Y95.944 E1.36991
G1 X137.227 Y101.342 E1.50587
G1 X136.778 Y106.787 E1.64216
G1 X136.638 Y112.245 E1.77836
G1 X136.807 Y117.685 E1.91412
G1 X137.283 Y123.11 E2.04997
G1 X138.471 Y130.958 E2.24797
G1 X138.511 Y131.397 E2.25897
G1 X138.538 Y132.367 E2.28317
G1 X138.504 Y132.968 E2.29819
G1 X138.29 Y134.491 E2.33655
G1 X138.165 Y135.052 E2.35089
G1 X137.88 Y135.975 E2.37499
G1 X137.652 Y136.539 E2.39016
G1 X136.909 Y138.007 E2.43121
G1 X136.539 Y138.591 E2.44845
G1 X135.7 Y139.67 E2.48255
G1 X135.333 Y140.074 E2.49616
G1 X134.654 Y140.717 E2.51949
G1 X134.276 Y141.029 E2.53171
G1 X133.312 Y141.72 E2.5613
G1 X132.822 Y142.016 E2.57558
G1 X131.665 Y142.593 E2.60783
G1 X131.265 Y142.763 E2.61868
G1 X130.686 Y142.969 E2.63401
G1 X130.176 Y143.109 E2.6472
G1 X128.585 Y143.423 E2.68765
G1 X127.839 Y143.491 E2.70634
G1 X126.217 Y143.469 E2.7468
G1 X125.59 Y143.405 E2.76252
G1 X124.517 Y143.2 E2.78977
G1 X124.025 Y143.069 E2.80247
G1 X123.013 Y142.722 E2.82916
G1 X122.585 Y142.544 E2.84072
G1 X121.724 Y142.118 E2.86469
G1 X121.338 Y141.896 E2.8758
G1 X120.58 Y141.396 E2.89845
G1 X120.169 Y141.081 E2.91136
G1 X119.154 Y140.178 E2.94525
G1 X118.724 Y139.721 E2.96091
G1 X117.755 Y138.496 E2.99987
G1 X117.571 Y138.243 E3.00767
G1 X115.542 Y135.161 E3.09972
G1 X115.408 Y134.94 E3.10616
G1 X113.7 Y131.89 E3.19336
G1 X113.585 Y131.667 E3.19962
G1 X112.115 Y128.552 E3.28555
G1 X112.017 Y128.323 E3.29176
G1 X110.752 Y125.077 E3.37866
G1 X110.669 Y124.843 E3.38486
G1 X109.65 Y121.578 E3.47018
G1 X109.585 Y121.339 E3.47635
G1 X108.785 Y117.98 E3.56249
G1 X108.736 Y117.735 E3.56872
G1 X108.166 Y114.299 E3.6556
G1 X108.133 Y114.051 E3.66184
G1 X107.806 Y110.612 E3.74802
G1 X107.791 Y110.366 E3.75417
G1 X107.7 Y106.925 E3.84003
G1 X107.702 Y106.676 E3.84624
G1 X107.851 Y103.206 E3.93288
G1 X107.871 Y102.956 E3.93914
G1 X108.26 Y99.514 E4.02555
G1 X108.296 Y99.267 E4.03177
G1 X108.921 Y95.867 E4.11801
G1 X108.975 Y95.623 E4.12424
G1 X109.842 Y92.247 E4.21119
G1 X109.912 Y92.009 E4.21738
G1 X110.993 Y88.75 E4.30303
G1 X111.08 Y88.515 E4.30928
G1 X112.39 Y85.327 E4.39526
G1 X112.466 Y85.156 E4.39992
G1 X113.216 Y83.57 E4.44369
G1 X113.3 Y83.404 E4.44833
G1 X114.947 Y80.342 E4.53506
G1 X115.072 Y80.126 E4.54128
G1 X116.92 Y77.197 E4.62768
G0 F3600 X117.259 Y77.41
G1 F1800 X117.352 Y77.271 E4.63185
G1 X118.347 Y75.863 E4.67486
G1 X118.445 Y75.731 E4.67896
G1 X120.585 Y73.011 E4.76529
G1 X120.692 Y72.883 E4.76945
G1 X121.803 Y71.613 E4.81154
G1 X121.881 Y71.527 E4.81444
G1 X123.166 Y70.162 E4.8612
G1 X123.398 Y69.938 E4.86925
G1 X124.224 Y69.221 E4.89653
G1 X124.669 Y68.898 E4.91025
G1 X126.03 Y68.077 E4.9499
G1 X126.533 Y67.831 E4.96387
G1 X127.574 Y67.43 E4.99169
G1 X128.009 Y67.297 E5.00304
G1 X129.064 Y67.055 E5.03004
G1 X129.589 Y66.98 E5.04327
G1 X131.132 Y66.888 E5.08183
G1 X131.772 Y66.914 E5.09781
G1 X133.235 Y67.122 E5.13467
G1 X133.664 Y67.213 E5.14561
G1 X134.396 Y67.422 E5.1646
G1 X134.903 Y67.615 E5.17813
G1 X136.518 Y68.391 E5.22283
G1 X137.077 Y68.734 E5.23919
G1 X138.143 Y69.55 E5.27267
G1 X138.595 Y69.971 E5.28808
G1 X139.728 Y71.252 E5.33074
G1 X140.095 Y71.76 E5.34638
G1 X140.75 Y72.883 E5.37881
G1 X141.003 Y73.428 E5.39379
G1 X141.526 Y74.907 E5.43293
G1 X141.657 Y75.4 E5.44565
G1 X141.789 Y76.124 E5.46401
G1 X141.838 Y76.55 E5.47471
G1 X141.892 Y77.714 E5.50377
G1 X141.854 Y78.375 E5.52029
G1 X141.585 Y80.032 E5.56216
G1 X141.483 Y80.466 E5.57329
G1 X140.013 Y85.209 E5.69715
G1 X138.645 Y90.526 E5.83411
G1 X138.069 Y93.228 E5.90302
G1 X137.588 Y95.867 E5.96994
G1 X136.829 Y101.305 E6.1069
G1 X136.379 Y106.761 E6.24346
G1 X136.238 Y112.246 E6.38033
G1 X136.407 Y117.697 E6.51638
G1 X136.887 Y123.158 E6.65313
G1 X138.076 Y131.018 E6.85142
G1 X138.111 Y131.408 E6.86119
G1 X138.138 Y132.378 E6.8854
G1 X138.108 Y132.912 E6.89874
G1 X137.894 Y134.435 E6.9371
G1 X137.783 Y134.934 E6.94986
G1 X137.498 Y135.857 E6.97395
G1 X137.295 Y136.358 E6.98744
G1 X136.552 Y137.826 E7.02848
G1 X136.223 Y138.345 E7.04381
G1 X135.384 Y139.424 E7.0779
G1 X135.058 Y139.783 E7.09
G1 X134.379 Y140.426 E7.11333
G1 X134.043 Y140.704 E7.12421
G1 X133.079 Y141.395 E7.15379
G1 X132.643 Y141.658 E7.16649
G1 X131.486 Y142.235 E7.19875
G1 X131.131 Y142.386 E7.20837
G1 X130.552 Y142.592 E7.2237
G1 X130.099 Y142.716 E7.23542
G1 X128.508 Y143.03 E7.27587
G1 X127.845 Y143.091 E7.29248
G1 X126.223 Y143.069 E7.33294
G1 X125.665 Y143.012 E7.34693
G1 X124.592 Y142.807 E7.37418
G1 X124.155 Y142.691 E7.38546
G1 X123.143 Y142.344 E7.41215
G1 X122.762 Y142.185 E7.42245
G1 X121.901 Y141.759 E7.44641
G1 X121.558 Y141.562 E7.45628
G1 X120.8 Y141.062 E7.47893
G1 X120.435 Y140.782 E7.49041
G1 X119.42 Y139.879 E7.52429
G1 X119.037 Y139.473 E7.53822
G1 X118.068 Y138.248 E7.57718
G1 X117.905 Y138.023 E7.58411
G1 X115.876 Y134.941 E7.67616
G1 X115.757 Y134.745 E7.68188
G1 X114.049 Y131.695 E7.76908
G1 X113.947 Y131.497 E7.77463
G1 X112.477 Y128.382 E7.86055
G1 X112.389 Y128.178 E7.8661
G1 X111.124 Y124.932 E7.953
G1 X111.051 Y124.723 E7.95852
G1 X110.032 Y121.458 E8.04384
G1 X109.974 Y121.246 E8.04932
G1 X109.174 Y117.887 E8.13546
G1 X109.13 Y117.67 E8.14098
G1 X108.56 Y114.234 E8.22786
G1 X108.531 Y114.013 E8.23342
G1 X108.204 Y110.574 E8.3196
G1 X108.191 Y110.356 E8.32504
G1 X108.1 Y106.915 E8.41091
G1 X108.102 Y106.693 E8.41645
G1 X108.251 Y103.223 E8.50309
G1 X108.268 Y103.001 E8.50864
G1 X108.657 Y99.559 E8.59505
G1 X108.69 Y99.339 E8.6006
G1 X109.315 Y95.939 E8.68683
G1 X109.363 Y95.722 E8.69238
G1 X110.23 Y92.346 E8.77933
G1 X110.292 Y92.135 E8.78481
G1 X111.373 Y88.876 E8.87046
G1 X111.45 Y88.667 E8.87602
G1 X112.76 Y85.479 E8.962
G1 X112.827 Y85.327 E8.96614
G1 X113.577 Y83.741 E9.0099
G1 X113.652 Y83.593 E9.01404
G1 X115.299 Y80.531 E9.10077
G1 X115.411 Y80.339 E9.10632
G1 X117.259 Y77.41 E9.19271
G1 F2100 E8.39271
;MESH:hexapod_femur.stl
G0 F3600 X119.88 Y78.061
G0 X120.942 Y78.783
G0 X131.191 Y78.209
G0 X131.263 Y78.141
;TYPE:WALL-INNER
G1 F2100 E9.19271
G1 F1800 X131.494 Y78.348 E9.20045
G1 X131.687 Y78.477 E9.20624
G1 X131.863 Y78.566 E9.21116
G1 X132.037 Y78.633 E9.21581
G1 X132.173 Y78.673 E9.21934
G1 X132.357 Y78.707 E9.22401
G1 X132.522 Y78.723 E9.22815
G1 X132.709 Y78.723 E9.23281
G1 X132.874 Y78.707 E9.23695
G1 X133.063 Y78.671 E9.24175
G1 X133.257 Y78.612 E9.2468
G1 X133.512 Y78.494 E9.25381
G1 X133.753 Y78.337 E9.26099
G1 X133.948 Y78.16 E9.26756
G1 X134.11 Y77.968 E9.27382
G1 X134.219 Y77.8 E9.27882
G1 X134.307 Y77.626 E9.28368
G1 X134.374 Y77.448 E9.28843
G1 X134.418 Y77.291 E9.2925
G1 X134.448 Y77.132 E9.29653
G1 X134.465 Y76.944 E9.30124
G1 X134.464 Y76.774 E9.30548
G1 X134.442 Y76.575 E9.31048
G1 X134.369 Y76.282 E9.31801
G1 X134.293 Y76.094 E9.32307
G1 X134.201 Y75.919 E9.328
G1 X134.076 Y75.738 E9.33348
G1 X133.923 Y75.565 E9.33925
G1 X133.728 Y75.395 E9.3457
G1 X133.484 Y75.24 E9.35291
G1 X133.225 Y75.127 E9.35996
G1 X133.032 Y75.072 E9.36497
G1 X132.843 Y75.038 E9.36976
G1 X132.676 Y75.026 E9.37393
G1 X132.487 Y75.028 E9.37865
G1 X132.312 Y75.05 E9.38305
G1 X132.022 Y75.12 E9.39049
G1 X131.831 Y75.199 E9.39564
G1 X131.66 Y75.291 E9.40049
G1 X131.47 Y75.42 E9.40622
G1 X131.241 Y75.634 E9.41404
G1 X131.063 Y75.866 E9.42133
G1 X130.927 Y76.117 E9.42845
G1 X130.857 Y76.3 E9.43334
G1 X130.812 Y76.459 E9.43746
G1 X130.783 Y76.621 E9.44157
G1 X130.766 Y76.807 E9.44623
G1 X130.767 Y76.977 E9.45047
G1 X130.789 Y77.177 E9.45548
G1 X130.864 Y77.477 E9.4632
G1 X130.989 Y77.761 E9.47094
G1 X131.087 Y77.919 E9.47558
G1 X131.263 Y78.141 E9.48264
G0 F3600 X131.191 Y78.209
G0 X124.347 Y90.63
G0 X124.43 Y90.684
G1 F1800 X124.039 Y91.322 E9.50131
G1 X123.672 Y91.976 E9.52002
G1 X123.33 Y92.648 E9.53883
G1 X123.165 Y92.997 E9.54846
G1 X122.86 Y93.688 E9.5673
G1 X122.57 Y94.402 E9.58652
G1 X122.3 Y95.13 E9.60589
G1 X122.047 Y95.871 E9.62542
G1 X121.81 Y96.622 E9.64507
G1 X121.586 Y97.386 E9.66493
G1 X121.277 Y98.535 E9.69461
G1 X120.966 Y99.822 E9.72764
G1 X120.758 Y100.825 E9.75319
G1 X120.586 Y101.833 E9.7787
G1 X120.448 Y102.842 E9.8041
G1 X120.389 Y103.356 E9.81701
G1 X120.301 Y104.372 E9.84245
G1 X120.246 Y105.39 E9.86788
G1 X120.231 Y105.905 E9.88073
G1 X120.226 Y106.925 E9.90617
G1 X120.256 Y107.944 E9.9316
G1 X120.283 Y108.461 E9.94452
G1 X120.366 Y109.48 E9.97002
G1 X120.598 Y111.494 E10.02059
G1 X120.705 Y112.187 E10.03808
G1 X120.826 Y112.833 E10.05448
G1 X120.971 Y113.476 E10.07092
G1 X121.138 Y114.112 E10.08732
G1 X121.327 Y114.743 E10.10376
G1 X121.537 Y115.366 E10.12016
G1 X121.768 Y115.983 E10.13659
G1 X122.021 Y116.591 E10.15302
G1 X122.293 Y117.189 E10.1694
G1 X122.586 Y117.778 E10.18581
G1 X122.9 Y118.356 E10.20222
G1 X123.233 Y118.924 E10.21865
G1 X123.586 Y119.479 E10.23506
G1 X123.955 Y120.022 E10.25143
G1 X124.346 Y120.552 E10.26786
G1 X124.753 Y121.07 E10.28429
G1 X125.179 Y121.572 E10.30072
G1 X125.62 Y122.059 E10.31711
G1 X126.078 Y122.53 E10.3335
G1 X126.553 Y122.988 E10.34995
G1 X127.042 Y123.426 E10.36633
G1 X127.546 Y123.849 E10.38274
G1 X128.065 Y124.254 E10.39917
G1 X128.597 Y124.64 E10.41556
G1 X129.142 Y125.009 E10.43198
G1 X129.7 Y125.359 E10.44841
G1 X130.264 Y125.686 E10.46467
G1 X130.887 Y126.033 E10.48246
G1 X131.298 Y126.301 E10.4947
G1 X131.699 Y126.605 E10.50725
G1 X132.094 Y126.949 E10.52032
G1 X132.428 Y127.284 E10.53212
G1 X132.61 Y127.484 E10.53887
G1 X132.747 Y127.649 E10.54422
G1 X133.056 Y128.06 E10.55704
G1 X133.337 Y128.494 E10.56994
G1 X133.569 Y128.914 E10.58191
G1 X133.678 Y129.136 E10.58808
G1 X133.785 Y129.378 E10.59468
G1 X133.876 Y129.604 E10.60076
G1 X133.964 Y129.845 E10.60716
G1 X134.037 Y130.068 E10.61301
G1 X134.109 Y130.321 E10.61957
G1 X134.166 Y130.551 E10.62548
G1 X134.262 Y131.042 E10.63796
G1 X134.297 Y131.288 E10.64416
G1 X134.323 Y131.537 E10.65041
G1 X134.341 Y131.788 E10.65668
G1 X134.352 Y132.296 E10.66936
G1 X134.326 Y132.781 E10.68147
G1 X134.261 Y133.309 E10.69474
G1 X134.226 Y133.516 E10.69998
G1 X134.106 Y134.035 E10.71327
G1 X133.966 Y134.491 E10.72517
G1 X133.878 Y134.734 E10.73162
G1 X133.691 Y135.176 E10.74359
G1 X133.451 Y135.649 E10.75682
G1 X133.338 Y135.845 E10.76246
G1 X133.064 Y136.267 E10.77501
G1 X132.754 Y136.679 E10.78787
G1 X132.432 Y137.05 E10.80013
G1 X132.078 Y137.405 E10.81264
G1 X131.702 Y137.733 E10.82508
G1 X131.303 Y138.033 E10.83753
G1 X131.103 Y138.169 E10.84357
G1 X130.671 Y138.429 E10.85614
G1 X130.223 Y138.659 E10.86871
G1 X130.001 Y138.758 E10.87477
G1 X129.525 Y138.941 E10.88749
G1 X129.289 Y139.018 E10.89368
G1 X129.063 Y139.083 E10.89955
G1 X128.808 Y139.147 E10.90611
G1 X128.329 Y139.241 E10.91829
G1 X128.076 Y139.277 E10.92466
G1 X127.822 Y139.304 E10.93103
G1 X127.578 Y139.321 E10.93713
G1 X127.073 Y139.334 E10.94973
G1 X126.817 Y139.325 E10.95612
G1 X126.338 Y139.283 E10.96812
G1 X125.831 Y139.204 E10.98092
G1 X125.354 Y139.096 E10.99312
G1 X124.877 Y138.951 E11.00556
G1 X124.406 Y138.771 E11.01813
G1 X123.94 Y138.555 E11.03095
G1 X123.743 Y138.452 E11.03649
G1 X123.296 Y138.184 E11.04949
G1 X123.091 Y138.047 E11.05564
G1 X122.692 Y137.748 E11.06808
G1 X122.322 Y137.428 E11.08028
G1 X121.963 Y137.071 E11.09291
G1 X121.628 Y136.688 E11.10561
G1 X121.478 Y136.497 E11.11166
G1 X120.919 Y135.721 E11.13552
G1 X120.428 Y135.012 E11.15703
G1 X119.954 Y134.301 E11.17835
G1 X119.493 Y133.582 E11.19965
G1 X119.042 Y132.854 E11.22102
G1 X118.61 Y132.127 E11.24211
G1 X118.183 Y131.378 E11.26362
G1 X117.77 Y130.628 E11.28498
G1 X117.373 Y129.872 E11.30628
G1 X116.989 Y129.108 E11.32761
G1 X116.618 Y128.341 E11.34886
G1 X116.259 Y127.562 E11.37026
G1 X115.914 Y126.78 E11.39158
G1 X115.584 Y125.995 E11.41282
G1 X115.267 Y125.199 E11.43419
G1 X114.962 Y124.399 E11.45555
G1 X114.674 Y123.601 E11.47671
G1 X114.397 Y122.786 E11.49819
G1 X114.135 Y121.972 E11.51952
G1 X113.887 Y121.154 E11.54084
G1 X113.654 Y120.332 E11.56215
G1 X113.435 Y119.505 E11.58349
G1 X113.229 Y118.675 E11.60483
G1 X113.039 Y117.842 E11.62614
G1 X112.864 Y117.012 E11.6473
G1 X112.701 Y116.165 E11.66881
G1 X112.556 Y115.328 E11.69
G1 X112.422 Y114.479 E11.71145
G1 X112.305 Y113.636 E11.73268
G1 X112.202 Y112.784 E11.75408
G1 X112.113 Y111.933 E11.77543
G1 X112.041 Y111.087 E11.79661
G1 X111.981 Y110.229 E11.81806
G1 X111.937 Y109.384 E11.83917
G1 X111.908 Y108.523 E11.86066
G1 X111.892 Y107.678 E11.88174
G1 X111.891 Y106.822 E11.90309
G1 X111.906 Y105.968 E11.9244
G1 X111.936 Y105.107 E11.94589
G1 X111.98 Y104.26 E11.96705
G1 X112.038 Y103.405 E11.98843
G1 X112.113 Y102.557 E12.00966
G1 X112.202 Y101.705 E12.03103
G1 X112.305 Y100.852 E12.05246
G1 X112.423 Y100.009 E12.0737
G1 X112.557 Y99.161 E12.09511
G1 X112.702 Y98.324 E12.1163
G1 X112.865 Y97.477 E12.13782
G1 X113.041 Y96.648 E12.15896
G1 X113.231 Y95.814 E12.1803
G1 X113.437 Y94.984 E12.20163
G1 X113.655 Y94.159 E12.22292
G1 X113.889 Y93.336 E12.24426
G1 X114.138 Y92.517 E12.26561
G1 X114.399 Y91.705 E12.28689
G1 X114.678 Y90.888 E12.30842
G1 X114.966 Y90.091 E12.32956
G1 X115.269 Y89.292 E12.35088
G1 X115.587 Y88.499 E12.37219
G1 X115.919 Y87.711 E12.39352
G1 X116.264 Y86.929 E12.41484
G1 X116.624 Y86.15 E12.43625
G1 X116.994 Y85.382 E12.45752
G1 X117.379 Y84.619 E12.47884
G1 X117.776 Y83.863 E12.50014
G1 X118.19 Y83.113 E12.52151
G1 X118.612 Y82.372 E12.54278
G1 X119.053 Y81.632 E12.56427
G1 X119.498 Y80.909 E12.58544
G1 X119.961 Y80.19 E12.60678
G1 X120.435 Y79.48 E12.62807
G1 X120.926 Y78.772 E12.64956
G1 X121.42 Y78.084 E12.67069
G1 X121.938 Y77.389 E12.69231
G1 X122.454 Y76.721 E12.71337
G1 X122.988 Y76.053 E12.7347
G1 X123.534 Y75.395 E12.75603
G1 X124.09 Y74.747 E12.77733
G1 X124.664 Y74.102 E12.79887
G1 X125.236 Y73.48 E12.81995
G1 X125.933 Y72.753 E12.84507
G1 X126.297 Y72.415 E12.85746
G1 X126.492 Y72.252 E12.8638
G1 X126.871 Y71.967 E12.87563
G1 X127.309 Y71.684 E12.88864
G1 X127.521 Y71.562 E12.89474
G1 X127.97 Y71.334 E12.9073
G1 X128.433 Y71.138 E12.91985
G1 X128.906 Y70.976 E12.93232
G1 X129.388 Y70.848 E12.94476
G1 X129.615 Y70.8 E12.95055
G1 X130.129 Y70.719 E12.96353
G1 X130.372 Y70.694 E12.96962
G1 X130.62 Y70.677 E12.97582
G1 X131.124 Y70.667 E12.98839
G1 X131.62 Y70.694 E13.00079
G1 X132.126 Y70.757 E13.01351
G1 X132.356 Y70.796 E13.01932
G1 X132.854 Y70.913 E13.03209
G1 X133.313 Y71.054 E13.04406
