;FLAVOR:Marlin
;TIME:8499
;Filament used: 12.5914m
;Layer height: 0.3
;Generated with Cura_SteamEngine 3.6.0
M82 ;absolute extrusion mode
G21 ; set units to millimeters
G90 ; use absolute positioning
M82 ; absolute extrusion mode
M104 S200 ; set extruder temp
M140 S60 ; set bed temp
M190 S60 ; wait for bed temp
M109 S200 ; wait for extruder temp
G28 W ; home all without mesh bed level
G80 ; mesh bed leveling
G92 E0.0 ; reset extruder distance position
G1 Y-3.0 F1000.0 ; go outside print area
G1 X60.0 E9.0 F1000.0 ; intro line
G1 X100.0 E21.5 F1000.0 ; intro line
G92 E0.0 ; reset extruder distance position
G92 E0
G1 F2100 E-0.8
;LAYER_COUNT:11
;LAYER:0
M107
G0 F3600 X71.243 Y32.474 Z0.15
;TYPE:SKIRT
G1 F2100 E0
G1 F1800 X71.548 Y31.945 E0.01523
G1 X72.935 Y29.991 E0.07501
G1 X73.188 Y29.677 E0.08507
G1 X73.713 Y29.106 E0.10441
G1 X73.87 Y28.947 E0.10999
G1 X74.515 Y28.337 E0.13213
G1 X74.759 Y28.128 E0.14015
G1 X76.129 Y27.071 E0.18331
G1 X76.503 Y26.823 E0.19451
G1 X78.022 Y25.96 E0.23809
G1 X78.425 Y25.767 E0.24923
G1 X80.037 Y25.129 E0.29248
G1 X80.459 Y24.995 E0.30352
G1 X82.149 Y24.584 E0.34691
G1 X82.591 Y24.508 E0.3581
G1 X84.347 Y24.335 E0.40211
G1 X84.791 Y24.323 E0.41319
G1 X86.493 Y24.392 E0.45568
G1 X86.935 Y24.441 E0.46678
G1 X88.657 Y24.754 E0.51044
G1 X89.13 Y24.877 E0.52263
G1 X92.865 Y26.168 E0.62121
G1 X98.122 Y27.849 E0.75888
G1 X103.462 Y29.232 E0.89649
G1 X106.076 Y29.788 E0.96315
G1 X111.501 Y30.71 E1.10042
G1 X116.937 Y31.319 E1.23687
G1 X122.401 Y31.62 E1.37338
G1 X127.871 Y31.612 E1.50983
G1 X133.351 Y31.293 E1.64676
G1 X138.788 Y30.667 E1.78328
G1 X144.198 Y29.732 E1.92023
G1 X146.825 Y29.162 E1.98729
G1 X149.485 Y28.506 E2.05563
G1 X154.796 Y26.954 E2.19365
G1 X161.038 Y24.835 E2.35809
G1 X161.423 Y24.73 E2.36804
G1 X162.28 Y24.554 E2.38987
G1 X162.612 Y24.504 E2.39824
G1 X164.37 Y24.332 E2.44231
G1 X164.756 Y24.318 E2.45194
G1 X165.964 Y24.346 E2.48208
G1 X166.349 Y24.378 E2.49172
G1 X168.116 Y24.634 E2.53626
G1 X168.551 Y24.728 E2.54736
G1 X170.19 Y25.205 E2.58994
G1 X170.603 Y25.357 E2.60092
G1 X172.188 Y26.066 E2.64423
G1 X172.583 Y26.277 E2.6554
G1 X174.068 Y27.21 E2.69915
G1 X174.43 Y27.475 E2.71034
G1 X175.763 Y28.6 E2.75385
G1 X176.072 Y28.898 E2.76456
G1 X177.183 Y30.126 E2.80587
G1 X177.463 Y30.484 E2.81721
G1 X178.462 Y31.965 E2.86177
G1 X178.683 Y32.347 E2.87278
G1 X179.443 Y33.899 E2.91589
G1 X179.611 Y34.314 E2.92706
G1 X180.15 Y35.967 E2.97043
G1 X180.258 Y36.395 E2.98144
G1 X180.565 Y38.111 E3.02492
G1 X180.614 Y38.582 E3.03674
G1 X180.848 Y46.65 E3.23808
G1 X181.324 Y52.1 E3.37455
G1 X182.105 Y57.514 E3.511
G1 X183.191 Y62.87 E3.64732
G1 X183.845 Y65.52 E3.71541
G1 X185.393 Y70.803 E3.85273
G1 X187.218 Y75.938 E3.98868
G1 X189.349 Y81.007 E4.12584
G1 X191.75 Y85.921 E4.26227
G1 X194.42 Y90.681 E4.39842
G1 X198.088 Y96.351 E4.56687
G1 X198.192 Y96.524 E4.57191
G1 X199.092 Y98.129 E4.61781
G1 X199.285 Y98.538 E4.62909
G1 X199.91 Y100.151 E4.67224
G1 X200.013 Y100.465 E4.68048
G1 X200.239 Y101.294 E4.70192
G1 X200.314 Y101.646 E4.7109
G1 X200.621 Y103.629 E4.76095
G1 X200.659 Y104.117 E4.77316
G1 X200.66 Y105.875 E4.81701
G1 X200.615 Y106.411 E4.83043
G1 X200.223 Y108.728 E4.88905
G1 X200.097 Y109.225 E4.90184
G1 X199.536 Y110.873 E4.94527
G1 X199.413 Y111.183 E4.95359
G1 X199.055 Y111.959 E4.97491
G1 X198.888 Y112.272 E4.98375
G1 X197.809 Y114.059 E5.03583
G1 X197.751 Y114.152 E5.03856
G1 X195.002 Y118.369 E5.16413
G1 X192.272 Y123.112 E5.30065
G1 X189.811 Y128.004 E5.43725
G1 X187.614 Y133.068 E5.57495
G1 X186.633 Y135.616 E5.64306
G1 X185.75 Y138.13 E5.70952
G1 X184.141 Y143.401 E5.847
G1 X182.831 Y148.762 E5.98466
G1 X182.306 Y151.396 E6.05166
G1 X181.459 Y156.818 E6.18855
G1 X180.922 Y162.276 E6.32536
G1 X180.693 Y167.76 E6.46228
G1 X180.687 Y169.864 E6.51476
G1 X180.681 Y170.055 E6.51953
G1 X180.568 Y171.862 E6.5647
G1 X180.507 Y172.312 E6.57602
G1 X180.147 Y174.046 E6.6202
G1 X180.026 Y174.478 E6.63139
G1 X179.44 Y176.109 E6.67462
G1 X179.26 Y176.516 E6.68572
G1 X178.462 Y178.034 E6.7285
G1 X178.197 Y178.456 E6.74094
G1 X176.832 Y180.289 E6.79795
G1 X176.526 Y180.642 E6.8096
G1 X175.714 Y181.453 E6.83823
G1 X175.447 Y181.692 E6.84717
G1 X174.07 Y182.789 E6.89108
G1 X173.7 Y183.043 E6.90228
G1 X172.196 Y183.929 E6.94582
G1 X171.901 Y184.083 E6.95412
G1 X171.132 Y184.434 E6.97521
G1 X170.827 Y184.555 E6.98339
G1 X169.181 Y185.111 E7.02673
G1 X168.749 Y185.224 E7.03787
G1 X167.039 Y185.546 E7.08128
G1 X166.594 Y185.598 E7.09245
G1 X164.832 Y185.679 E7.13645
G1 X164.383 Y185.668 E7.14766
G1 X162.666 Y185.505 E7.19068
G1 X162.338 Y185.456 E7.19895
G1 X161.507 Y185.289 E7.2201
G1 X161.298 Y185.24 E7.22545
G1 X160.488 Y185.02 E7.24639
G1 X160.245 Y184.944 E7.25274
G1 X157.52 Y183.965 E7.32497
G1 X152.293 Y182.269 E7.46205
G1 X146.927 Y180.856 E7.60047
G1 X144.316 Y180.288 E7.66712
G1 X138.932 Y179.35 E7.80345
G1 X133.462 Y178.713 E7.94082
G1 X128.016 Y178.39 E8.07691
G1 X122.528 Y178.375 E8.21381
G1 X117.083 Y178.668 E8.34983
G1 X111.627 Y179.273 E8.48677
G1 X106.184 Y180.19 E8.62446
G1 X103.605 Y180.738 E8.69023
G1 X98.26 Y182.114 E8.82791
G1 X88.972 Y185.164 E9.07177
G1 X88.518 Y185.277 E9.08344
G1 X86.799 Y185.574 E9.12696
G1 X86.358 Y185.619 E9.13801
G1 X84.64 Y185.675 E9.18089
G1 X84.205 Y185.66 E9.19175
G1 X82.515 Y185.484 E9.23413
G1 X82.005 Y185.389 E9.24708
G1 X79.743 Y184.773 E9.30556
G1 X79.297 Y184.615 E9.31736
G1 X78.216 Y184.14 E9.34681
G1 X77.9 Y183.979 E9.35566
G1 X76.418 Y183.121 E9.39838
G1 X76.052 Y182.874 E9.40939
G1 X74.671 Y181.796 E9.45309
G1 X74.293 Y181.45 E9.46588
G1 X72.729 Y179.763 E9.52326
G1 X72.436 Y179.395 E9.535
G1 X71.777 Y178.433 E9.56408
G1 X71.564 Y178.074 E9.5745
G1 X70.528 Y176.034 E9.63157
G1 X70.317 Y175.508 E9.64571
G1 X69.73 Y173.56 E9.69646
G1 X69.643 Y173.195 E9.70582
G1 X69.492 Y172.342 E9.72743
G1 X69.452 Y172.018 E9.73557
G1 X69.321 Y170.229 E9.78032
G1 X69.312 Y170.039 E9.78506
G1 X69.255 Y165.871 E9.88904
G1 X68.923 Y160.403 E10.0257
G1 X68.281 Y154.967 E10.16224
G1 X67.331 Y149.557 E10.29926
G1 X66.085 Y144.25 E10.43524
G1 X65.349 Y141.616 E10.50346
G1 X63.644 Y136.388 E10.64064
G1 X62.69 Y133.84 E10.7085
G1 X60.553 Y128.79 E10.84529
G1 X58.139 Y123.877 E10.98184
G1 X55.457 Y119.12 E11.11807
G1 X51.725 Y113.365 E11.28917
G1 X51.545 Y113.05 E11.29822
G1 X50.497 Y110.944 E11.3569
G1 X50.297 Y110.439 E11.37045
G1 X49.719 Y108.516 E11.42054
G1 X49.616 Y108.045 E11.43256
G1 X49.375 Y106.349 E11.4753
G1 X49.343 Y105.906 E11.48638
G1 X49.339 Y104.136 E11.53053
G1 X49.367 Y103.705 E11.5413
G1 X49.562 Y102.246 E11.57802
G1 X49.614 Y101.959 E11.5853
G1 X49.814 Y101.081 E11.60776
G1 X49.907 Y100.754 E11.61624
G1 X50.475 Y99.098 E11.65991
G1 X50.639 Y98.706 E11.67051
G1 X51.367 Y97.248 E11.71116
G1 X51.564 Y96.908 E11.72097
G1 X53.527 Y93.951 E11.8095
G1 X56.404 Y89.263 E11.94671
G1 X58.998 Y84.45 E12.0831
G1 X61.322 Y79.481 E12.21994
G1 X63.383 Y74.336 E12.35819
G1 X64.254 Y71.854 E12.42381
G1 X65.864 Y66.58 E12.56136
G1 X67.169 Y61.229 E12.69876
G1 X67.697 Y58.585 E12.76601
G1 X68.541 Y53.169 E12.90275
G1 X69.075 Y47.738 E13.03888
G1 X69.317 Y39.487 E13.24479
G1 X69.343 Y39.169 E13.25275
G1 X69.644 Y36.853 E13.31101
G1 X69.735 Y36.404 E13.32243
G1 X70.11 Y35.062 E13.35719
G1 X70.278 Y34.6 E13.36946
G1 X71.243 Y32.474 E13.4277
G1 F2100 E12.6277
;MESH:hexapod_body_bottom.stl
G0 F3600 X73.813 Y33.073
G0 X74.899 Y33.746
G0 X82.251 Y34.702
G0 X82.225 Y34.798
;TYPE:WALL-INNER
G1 F2100 E13.4277
G1 F1800 X81.919 Y34.745 E13.43544
G1 X81.746 Y34.737 E13.43976
G1 X81.545 Y34.744 E13.44478
G1 X81.246 Y34.801 E13.45237
G1 X81.077 Y34.858 E13.45682
G1 X80.908 Y34.934 E13.46144
G1 X80.764 Y35.014 E13.46555
G1 X80.622 Y35.112 E13.46986
G1 X80.436 Y35.274 E13.47601
G1 X80.272 Y35.46 E13.4822
G1 X80.173 Y35.603 E13.48653
G1 X80.079 Y35.773 E13.49138
G1 X80.004 Y35.951 E13.4962
G1 X79.949 Y36.13 E13.50087
G1 X79.913 Y36.295 E13.50508
G1 X79.894 Y36.49 E13.50997
G1 X79.895 Y36.735 E13.51608
G1 X79.922 Y36.929 E13.52097
G1 X79.959 Y37.093 E13.52516
G1 X80.023 Y37.278 E13.53004
G1 X80.105 Y37.452 E13.53484
G1 X80.205 Y37.619 E13.5397
G1 X80.318 Y37.771 E13.54442
G1 X80.454 Y37.916 E13.54938
G1 X80.629 Y38.068 E13.55516
G1 X80.887 Y38.229 E13.56275
G1 X81.074 Y38.313 E13.56786
G1 X81.257 Y38.372 E13.57266
G1 X81.444 Y38.413 E13.57744
G1 X81.607 Y38.431 E13.58153
G1 X81.797 Y38.438 E13.58627
G1 X81.977 Y38.423 E13.59078
G1 X82.268 Y38.362 E13.59819
G1 X82.459 Y38.293 E13.60326
G1 X82.633 Y38.209 E13.60808
G1 X82.777 Y38.12 E13.6123
G1 X82.948 Y37.99 E13.61766
G1 X83.094 Y37.851 E13.62269
G1 X83.233 Y37.681 E13.62817
G1 X83.326 Y37.541 E13.63236
G1 X83.416 Y37.372 E13.63713
G1 X83.489 Y37.192 E13.64198
G1 X83.541 Y37.01 E13.6467
G1 X83.577 Y36.819 E13.65155
G1 X83.589 Y36.654 E13.65568
G1 X83.589 Y36.469 E13.66029
G1 X83.571 Y36.299 E13.66456
G1 X83.531 Y36.111 E13.66935
G1 X83.471 Y35.928 E13.67415
G1 X83.392 Y35.749 E13.67904
G1 X83.296 Y35.585 E13.68378
G1 X83.199 Y35.446 E13.688
G1 X83.031 Y35.258 E13.69429
G1 X82.84 Y35.097 E13.70052
G1 X82.693 Y35.001 E13.7049
G1 X82.519 Y34.907 E13.70984
G1 X82.225 Y34.798 E13.71766
G0 F3600 X82.251 Y34.702
G0 X81.541 Y34.705
G0 X80.891 Y34.899
G0 X80.408 Y35.246
G0 X80.044 Y35.756
G0 X79.855 Y36.489
G0 X82.122 Y53.013
G0 X83.741 Y54.89
G0 X85.157 Y56.926
G0 X86.351 Y59.098
G0 X87.311 Y61.383
G0 X88.029 Y63.755
G0 X88.495 Y66.19
G0 X88.705 Y68.662
G0 X88.652 Y71.138
G0 X88.414 Y73.194
G0 X87.996 Y75.219
G0 X87.268 Y77.583
G0 X86.294 Y79.863
G0 X85.088 Y82.029
G0 X83.663 Y84.057
G0 X82.344 Y85.569
G0 X62.206 Y106.276
G0 X62.131 Y106.211
G1 F1800 X62.311 Y105.964 E13.72528
G1 X62.394 Y105.809 E13.72967
G1 X62.467 Y105.638 E13.73431
G1 X62.518 Y105.476 E13.73854
G1 X62.552 Y105.316 E13.74262
G1 X62.576 Y105.124 E13.74745
G1 X62.576 Y104.88 E13.75354
G1 X62.556 Y104.698 E13.7581
G1 X62.483 Y104.407 E13.76559
G1 X62.407 Y104.219 E13.77065
G1 X62.311 Y104.038 E13.77576
G1 X62.131 Y103.79 E13.7834
G1 X61.946 Y103.604 E13.78995
G1 X61.767 Y103.468 E13.79555
G1 X61.599 Y103.366 E13.80046
G1 X61.413 Y103.28 E13.80557
G1 X61.124 Y103.191 E13.81311
G1 X60.926 Y103.16 E13.81811
G1 X60.759 Y103.15 E13.82228
G1 X60.557 Y103.157 E13.82733
G1 X60.265 Y103.208 E13.83472
G1 X60.095 Y103.261 E13.83916
G1 X59.917 Y103.337 E13.84399
G1 X59.742 Y103.434 E13.84898
G1 X59.515 Y103.602 E13.85603
G1 X59.333 Y103.784 E13.86245
G1 X59.194 Y103.965 E13.86814
G1 X59.082 Y104.157 E13.87368
G1 X59.001 Y104.336 E13.87859
G1 X58.939 Y104.529 E13.88364
G1 X58.889 Y104.798 E13.89047
G1 X58.878 Y105.01 E13.89576
G1 X58.904 Y105.309 E13.90325
G1 X58.943 Y105.482 E13.90767
G1 X59.001 Y105.665 E13.91246
G1 X59.082 Y105.841 E13.91729
G1 X59.18 Y106.011 E13.92219
G1 X59.314 Y106.193 E13.92783
G1 X59.495 Y106.38 E13.93432
G1 X59.738 Y106.564 E13.94192
G1 X59.893 Y106.651 E13.94636
G1 X60.075 Y106.732 E13.95133
G1 X60.367 Y106.815 E13.9589
G1 X60.565 Y106.843 E13.96389
G1 X60.731 Y106.85 E13.96803
G1 X60.919 Y106.84 E13.97273
G1 X61.096 Y106.815 E13.97719
G1 X61.383 Y106.732 E13.98464
G1 X61.574 Y106.647 E13.98985
G1 X61.764 Y106.534 E13.99537
G1 X61.946 Y106.396 E14.00107
G1 X62.131 Y106.211 E14.00759
G0 F3600 X62.206 Y106.276
G0 X81.465 Y123.507
G0 X83.156 Y125.32
G0 X84.652 Y127.297
G0 X85.93 Y129.422
G0 X86.98 Y131.666
G0 X87.789 Y134.01
G0 X88.351 Y136.424
G0 X88.657 Y138.885
G0 X88.703 Y141.36
G0 X88.545 Y143.422
G0 X88.119 Y145.864
G0 X80.549 Y171.946
G0 X80.138 Y172.413
G0 X79.908 Y172.954
G0 X79.859 Y173.579
G0 X80.072 Y174.301
G0 X80.47 Y174.812
G0 X81.123 Y175.2
G0 X82.116 Y175.33
G0 X82.097 Y175.232
G1 F1800 X82.396 Y175.145 E14.01536
G1 X82.577 Y175.064 E14.02031
G1 X82.724 Y174.981 E14.02452
G1 X82.909 Y174.85 E14.03017
G1 X83.093 Y174.677 E14.03647
G1 X83.235 Y174.505 E14.04204
G1 X83.328 Y174.365 E14.04623
G1 X83.418 Y174.196 E14.05101
G1 X83.491 Y174.015 E14.05587
G1 X83.544 Y173.832 E14.06063
G1 X83.578 Y173.642 E14.06544
G1 X83.59 Y173.474 E14.06964
G1 X83.588 Y173.289 E14.07426
G1 X83.569 Y173.119 E14.07853
G1 X83.527 Y172.933 E14.08328
G1 X83.47 Y172.752 E14.08802
G1 X83.391 Y172.575 E14.09285
G1 X83.296 Y172.41 E14.0976
G1 X83.197 Y172.27 E14.10188
G1 X83.05 Y172.106 E14.10737
G1 X82.885 Y171.958 E14.1129
G1 X82.722 Y171.844 E14.11786
G1 X82.579 Y171.764 E14.12195
G1 X82.401 Y171.683 E14.12683
G1 X82.099 Y171.597 E14.13466
G1 X81.906 Y171.57 E14.13952
G1 X81.738 Y171.563 E14.14372
G1 X81.551 Y171.573 E14.14839
G1 X81.384 Y171.597 E14.1526
G1 X81.2 Y171.644 E14.15733
G1 X81.021 Y171.709 E14.16208
G1 X80.85 Y171.791 E14.16681
G1 X80.708 Y171.878 E14.17097
G1 X80.574 Y171.976 E14.17511
G1 X80.428 Y172.11 E14.18005
G1 X80.268 Y172.293 E14.18612
G1 X80.172 Y172.434 E14.19037
G1 X80.079 Y172.6 E14.19512
G1 X80.002 Y172.779 E14.19998
G1 X79.946 Y172.963 E14.20478
G1 X79.911 Y173.135 E14.20916
G1 X79.89 Y173.403 E14.21586
G1 X79.898 Y173.576 E14.22018
G1 X79.923 Y173.762 E14.22486
G1 X79.962 Y173.926 E14.22907
G1 X80.025 Y174.107 E14.23385
G1 X80.107 Y174.283 E14.23869
G1 X80.206 Y174.447 E14.24347
G1 X80.324 Y174.606 E14.24841
G1 X80.497 Y174.783 E14.25458
G1 X80.649 Y174.908 E14.25949
G1 X80.791 Y175.001 E14.26373
G1 X80.959 Y175.091 E14.26848
G1 X81.136 Y175.163 E14.27325
G1 X81.294 Y175.208 E14.27735
G1 X81.451 Y175.241 E14.28135
G1 X81.615 Y175.26 E14.28547
G1 X81.812 Y175.263 E14.29038
G1 X82.097 Y175.232 E14.29753
G0 F3600 X82.116 Y175.33
G0 X114.398 Y165.7
G0 X118.016 Y164.936
G0 X121.685 Y164.489
G0 X124.642 Y164.361
G0 X128.335 Y164.493
G0 X131.273 Y164.825
G0 X134.904 Y165.528
G0 X137.781 Y166.349
G0 X167.749 Y175.298
G0 X167.775 Y175.202
G1 F1800 X168.081 Y175.255 E14.30528
G1 X168.254 Y175.263 E14.3096
G1 X168.455 Y175.256 E14.31462
G1 X168.755 Y175.199 E14.32223
G1 X168.924 Y175.141 E14.32669
G1 X169.093 Y175.065 E14.33131
G1 X169.235 Y174.987 E14.33536
G1 X169.377 Y174.889 E14.33966
G1 X169.564 Y174.726 E14.34585
G1 X169.729 Y174.539 E14.35207
G1 X169.827 Y174.397 E14.35637
G1 X169.921 Y174.227 E14.36122
G1 X169.996 Y174.049 E14.36604
G1 X170.051 Y173.87 E14.37071
G1 X170.087 Y173.705 E14.37492
G1 X170.106 Y173.51 E14.37981
G1 X170.105 Y173.265 E14.38592
G1 X170.078 Y173.071 E14.39081
G1 X170.041 Y172.907 E14.395
G1 X169.977 Y172.722 E14.39988
G1 X169.895 Y172.548 E14.40468
G1 X169.795 Y172.381 E14.40954
G1 X169.682 Y172.229 E14.41426
G1 X169.546 Y172.084 E14.41922
G1 X169.371 Y171.932 E14.425
G1 X169.113 Y171.771 E14.43259
G1 X168.926 Y171.687 E14.4377
G1 X168.743 Y171.628 E14.4425
G1 X168.556 Y171.587 E14.44727
G1 X168.393 Y171.569 E14.45136
G1 X168.203 Y171.562 E14.45611
G1 X168.023 Y171.577 E14.46061
G1 X167.732 Y171.638 E14.46803
G1 X167.541 Y171.707 E14.4731
G1 X167.367 Y171.791 E14.47792
G1 X167.223 Y171.88 E14.48214
G1 X167.052 Y172.01 E14.4875
G1 X166.906 Y172.149 E14.49253
G1 X166.767 Y172.319 E14.498
G1 X166.674 Y172.459 E14.5022
G1 X166.584 Y172.628 E14.50697
G1 X166.511 Y172.808 E14.51182
G1 X166.459 Y172.99 E14.51654
G1 X166.423 Y173.181 E14.52139
G1 X166.411 Y173.346 E14.52551
G1 X166.411 Y173.531 E14.53013
G1 X166.429 Y173.701 E14.53439
G1 X166.469 Y173.889 E14.53919
G1 X166.529 Y174.072 E14.54399
G1 X166.608 Y174.251 E14.54887
G1 X166.704 Y174.415 E14.55361
G1 X166.801 Y174.554 E14.55784
G1 X166.969 Y174.742 E14.56413
G1 X167.16 Y174.903 E14.57036
G1 X167.307 Y174.999 E14.57474
G1 X167.481 Y175.093 E14.57967
G1 X167.775 Y175.202 E14.5875
G0 F3600 X167.749 Y175.298
G0 X168.459 Y175.295
G0 X169.11 Y175.1
G0 X169.592 Y174.754
G0 X169.956 Y174.244
G0 X170.145 Y173.511
G0 X168.174 Y157.292
G0 X166.521 Y155.444
G0 X165.071 Y153.433
G0 X163.838 Y151.283
G0 X162.835 Y149.016
G0 X162.076 Y146.656
G0 X161.566 Y144.231
G0 X161.313 Y141.763
G0 X161.318 Y139.288
G0 X161.521 Y137.23
G0 X161.999 Y134.796
G0 X162.727 Y132.427
G0 X163.701 Y130.147
G0 X164.905 Y127.981
G0 X166.33 Y125.952
G0 X167.958 Y124.084
G0 X169.774 Y122.394
G0 X171.754 Y120.904
G0 X173.88 Y119.629
G0 X176.128 Y118.583
G0 X178.473 Y117.776
G0 X180.888 Y117.22
G0 X183.348 Y116.918
G0 X190.968 Y105.831
G0 X191.218 Y104.862
G0 X191.119 Y104.869
G1 F1800 X191.07 Y104.569 E14.59508
G1 X191.02 Y104.398 E14.59952
G1 X190.948 Y104.219 E14.60434
