;FLAVOR:Marlin
;TIME:1422
;Filament used: 1.31104m
;Layer height: 0.2
;Generated with Cura_SteamEngine 3.6.0
M82 ;absolute extrusion mode
G21 ; set units to millimeters
G90 ; use absolute positioning
M82 ; absolute extrusion mode
M104 S200 ; set extruder temp
M140 S60 ; set bed temp
M190 S60 ; wait for bed temp
M109 S200 ; wait for extruder temp
G28 W ; home all without mesh bed level
G80 ; mesh bed leveling
G92 E0.0 ; reset extruder distance position
G1 Y-3.0 F1000.0 ; go outside print area
G1 X60.0 E9.0 F1000.0 ; intro line
G1 X100.0 E21.5 F1000.0 ; intro line
G92 E0.0 ; reset extruder distance position
G92 E0
G1 F2100 E-0.8
;LAYER_COUNT:16
;LAYER:0
M107
G0 F3600 X113.199 Y49.785 Z0.15
;TYPE:SKIRT
G1 F2100 E0
G1 F1800 X113.246 Y49.686 E0.00273
G1 X114.937 Y46.261 E0.09802
G1 X115.07 Y46.018 E0.10493
G1 X115.545 Y45.235 E0.12777
G1 X115.841 Y44.825 E0.14039
G1 X116.197 Y44.467 E0.15298
G1 X116.606 Y44.169 E0.1656
G1 X117.056 Y43.939 E0.17821
G1 X117.359 Y43.831 E0.18623
G1 X117.964 Y43.649 E0.20199
G1 X118.458 Y43.542 E0.2146
G1 X118.963 Y43.514 E0.22722
G1 X119.466 Y43.566 E0.23983
G1 X120.153 Y43.774 E0.25774
G1 X120.552 Y43.946 E0.26858
G1 X120.999 Y44.183 E0.2812
G1 X121.403 Y44.486 E0.2938
G1 X121.754 Y44.85 E0.30641
G1 X122.032 Y45.243 E0.31842
G1 X122.31 Y45.708 E0.33193
G1 X122.534 Y46.161 E0.34454
G1 X122.684 Y46.644 E0.35715
G1 X122.756 Y47.144 E0.36976
G1 X122.753 Y47.605 E0.38126
G1 X122.429 Y51.649 E0.48246
G1 X122.197 Y57.132 E0.61935
G1 X122.276 Y62.622 E0.75632
G1 X122.663 Y68.077 E0.89273
G1 X123.359 Y73.509 E1.02934
G1 X124.362 Y78.904 E1.16623
G1 X124.962 Y81.516 E1.23308
G1 X126.431 Y86.841 E1.37088
G1 X128.18 Y92.028 E1.50742
G1 X130.219 Y97.103 E1.64386
G1 X132.544 Y102.059 E1.78041
G1 X135.147 Y106.882 E1.91713
G1 X138.016 Y111.543 E2.05366
G1 X141.137 Y116.025 E2.1899
G1 X144.538 Y120.366 E2.32746
G1 X146.603 Y122.778 E2.40666
G1 X146.964 Y123.295 E2.42239
G1 X147.428 Y124.123 E2.44607
G1 X147.705 Y124.782 E2.4639
G1 X147.978 Y125.708 E2.48798
G1 X148.104 Y126.431 E2.50629
G1 X148.193 Y127.994 E2.54534
G1 X148.198 Y128.183 E2.55006
G1 X148.19 Y131.644 E2.6364
G1 X148.18 Y131.886 E2.64244
G1 X147.618 Y139.08 E2.82244
G1 X147.54 Y144.559 E2.95913
G1 X147.774 Y150.039 E3.09595
G1 X148.186 Y154.64 E3.21118
G1 X148.199 Y154.968 E3.21937
G1 X148.141 Y159.279 E3.32692
G1 X148.044 Y160.016 E3.34546
G1 X147.832 Y160.859 E3.36715
G1 X147.619 Y161.454 E3.38291
G1 X147.304 Y162.116 E3.4012
G1 X146.914 Y162.738 E3.41951
G1 X146.211 Y163.618 E3.44761
G1 X145.865 Y163.987 E3.46023
G1 X145.569 Y164.227 E3.46973
G1 X144.597 Y164.92 E3.49951
G1 X144.163 Y165.18 E3.51213
G1 X143.871 Y165.307 E3.52007
G1 X142.689 Y165.754 E3.5516
G1 X142.284 Y165.877 E3.56216
G1 X140.835 Y166.215 E3.59927
G1 X140.483 Y166.277 E3.60819
G1 X139.152 Y166.434 E3.64162
G1 X138.794 Y166.456 E3.65057
G1 X136.961 Y166.466 E3.69629
G1 X136.516 Y166.437 E3.70742
G1 X134.642 Y166.184 E3.75459
G1 X134.202 Y166.093 E3.7658
G1 X132.684 Y165.665 E3.80514
G1 X132.262 Y165.513 E3.81633
G1 X130.814 Y164.875 E3.8558
G1 X130.369 Y164.636 E3.8684
G1 X128.684 Y163.549 E3.91842
G1 X128.292 Y163.251 E3.9307
G1 X126.503 Y161.659 E3.99044
G1 X126.36 Y161.524 E3.99535
G1 X122.734 Y157.875 E4.12367
G1 X122.584 Y157.713 E4.12918
G1 X119.212 Y153.817 E4.25771
G1 X119.075 Y153.647 E4.26315
G1 X116.008 Y149.571 E4.3904
G1 X115.882 Y149.391 E4.39588
G1 X113.08 Y145.082 E4.5241
G1 X112.969 Y144.898 E4.52946
G1 X110.523 Y140.516 E4.65464
G1 X110.422 Y140.32 E4.66014
G1 X108.175 Y135.55 E4.79167
G1 X108.116 Y135.417 E4.7953
G1 X107.486 Y133.905 E4.83616
G1 X107.435 Y133.774 E4.83967
G1 X105.781 Y129.257 E4.95966
G1 X105.715 Y129.056 E4.96494
G1 X104.265 Y124.1 E5.09375
G1 X104.228 Y123.961 E5.09734
G1 X103.852 Y122.423 E5.13683
G1 X103.822 Y122.291 E5.14021
G1 X102.896 Y117.661 E5.25799
G1 X102.862 Y117.452 E5.26327
G1 X102.183 Y112.316 E5.39251
G1 X102.161 Y112.099 E5.39795
G1 X101.842 Y107.067 E5.52372
G1 X101.836 Y106.882 E5.52834
G1 X101.802 Y100.448 E5.68884
G1 X101.803 Y100.366 E5.69089
G1 X101.889 Y96.129 E5.7966
G1 X101.893 Y96.017 E5.7994
G1 X102.109 Y92.11 E5.897
G1 X102.117 Y92.002 E5.89971
G1 X102.47 Y88.056 E5.99853
G1 X102.481 Y87.946 E6.00129
G1 X102.974 Y83.981 E6.10096
G1 X102.99 Y83.874 E6.10366
G1 X103.607 Y79.99 E6.20176
G1 X103.626 Y79.883 E6.20447
G1 X104.384 Y75.974 E6.3038
G1 X104.406 Y75.867 E6.30652
G1 X105.268 Y72.112 E6.40263
G1 X105.291 Y72.018 E6.40504
G1 X106.097 Y68.938 E6.48446
G1 X106.124 Y68.842 E6.48695
G1 X107.249 Y65.029 E6.58612
G1 X107.281 Y64.925 E6.58883
G1 X108.522 Y61.193 E6.68694
G1 X108.559 Y61.09 E6.68967
G1 X109.961 Y57.309 E6.79026
G1 X110.001 Y57.206 E6.79302
G1 X111.541 Y53.458 E6.8941
G1 X111.585 Y53.356 E6.89687
G1 X113.199 Y49.785 E6.99462
G1 F2100 E6.19462
;MESH:hexapod_tibia.stl
G0 F3600 X113.252 Y55.912
G0 X114.433 Y56.413
G0 X114.395 Y84.406
G0 X114.539 Y87.98
G0 X114.873 Y92.053
G0 X115.558 Y96.886
G0 X116.345 Y100.785
G0 X117.422 Y104.878
G0 X118.414 Y108.005
G0 X119.426 Y110.802
G0 X120.752 Y113.839
G0 X122.298 Y116.685
G0 X123.098 Y117.851
G0 X132.33 Y130.976
G0 X132.4 Y131.046
;TYPE:WALL-INNER
G1 F2100 E6.99462
G1 F1800 X132.4 Y155.246 E7.59829
G1 X137.728 Y155.246 E7.7312
G1 X137.859 Y155.246 E7.73447
G1 X137.993 Y155.246 E7.73781
G1 X138.127 Y155.246 E7.74115
G1 X138.228 Y155.246 E7.74367
G1 X138.127 Y155.303 E7.74413
G1 X137.993 Y155.403 E7.74568
G1 X137.859 Y155.522 E7.74847
G1 X137.776 Y155.623 E7.75127
G1 X137.676 Y155.744 E7.75519
G1 X137.564 Y155.937 E7.76076
G1 X137.505 Y156.075 E7.7645
G1 X137.452 Y156.235 E7.7687
G1 X137.415 Y156.424 E7.77351
G1 X137.399 Y156.617 E7.77834
G1 X137.407 Y156.815 E7.78328
G1 X137.441 Y157.006 E7.78812
G1 X137.498 Y157.204 E7.79326
G1 X137.62 Y157.458 E7.80029
G1 X137.721 Y157.611 E7.80486
G1 X137.856 Y157.767 E7.81001
G1 X138.074 Y157.953 E7.81716
G1 X138.268 Y158.07 E7.82281
G1 X138.427 Y158.141 E7.82715
G1 X138.589 Y158.194 E7.83141
G1 X138.777 Y158.231 E7.83619
G1 X138.946 Y158.245 E7.84042
G1 X139.137 Y158.241 E7.84518
G1 X139.343 Y158.211 E7.85037
G1 X139.617 Y158.125 E7.85754
G1 X139.797 Y158.034 E7.86257
G1 X139.923 Y157.954 E7.86629
G1 X140.069 Y157.838 E7.87094
G1 X140.173 Y157.733 E7.87463
G1 X140.292 Y157.591 E7.87925
G1 X140.389 Y157.442 E7.88369
G1 X140.482 Y157.25 E7.88901
G1 X140.547 Y157.062 E7.89397
G1 X140.586 Y156.865 E7.89898
G1 X140.601 Y156.652 E7.90431
G1 X140.592 Y156.476 E7.9087
G1 X140.559 Y156.286 E7.91351
G1 X140.507 Y156.103 E7.91826
G1 X140.446 Y155.961 E7.92211
G1 X140.346 Y155.777 E7.92734
G1 X140.246 Y155.643 E7.93151
G1 X140.242 Y155.638 E7.93167
G1 X140.131 Y155.513 E7.93584
G1 X139.988 Y155.386 E7.94061
G1 X139.837 Y155.282 E7.94518
G1 X139.766 Y155.246 E7.94717
G1 X139.837 Y155.246
G1 X139.988 Y155.246 E7.94783
G1 X140.131 Y155.246 E7.94949
G1 X140.242 Y155.246 E7.95088
G1 X140.249 Y155.246 E7.95106
G1 X144.199 Y155.246 E8.04959
G1 X144.399 Y155.246 E8.05458
G1 X144.399 Y155.446 E8.05781
G1 X144.394 Y158.848 E8.14267
G1 X144.376 Y159.059 E8.14796
G1 X144.336 Y159.312 E8.15435
G1 X144.281 Y159.552 E8.16049
G1 X144.212 Y159.777 E8.16636
G1 X144.124 Y160.009 E8.17255
G1 X144.022 Y160.231 E8.17864
G1 X143.906 Y160.442 E8.18465
G1 X143.774 Y160.646 E8.19071
G1 X143.635 Y160.833 E8.19652
G1 X143.464 Y161.032 E8.20307
G1 X143.307 Y161.191 E8.20864
G1 X143.119 Y161.356 E8.21488
G1 X142.918 Y161.51 E8.2212
G1 X142.692 Y161.66 E8.22796
G1 X142.437 Y161.806 E8.23529
G1 X142.205 Y161.917 E8.24171
G1 X141.94 Y162.024 E8.24884
G1 X141.61 Y162.132 E8.2575
G1 X141.167 Y162.258 E8.26899
G1 X140.729 Y162.369 E8.28026
G1 X140.295 Y162.462 E8.29133
G1 X139.837 Y162.544 E8.30294
G1 X139.41 Y162.604 E8.31369
G1 X138.942 Y162.654 E8.32544
G1 X138.509 Y162.685 E8.33626
G1 X138.038 Y162.702 E8.34802
G1 X137.604 Y162.705 E8.35885
G1 X137.142 Y162.689 E8.37038
G1 X136.692 Y162.657 E8.38163
G1 X136.235 Y162.611 E8.39309
G1 X135.81 Y162.552 E8.40379
G1 X135.364 Y162.473 E8.41509
G1 X134.939 Y162.385 E8.42592
G1 X134.596 Y162.3 E8.43473
G1 X134.234 Y162.196 E8.44413
G1 X133.885 Y162.084 E8.45327
G1 X133.539 Y161.958 E8.46246
G1 X133.194 Y161.82 E8.47173
G1 X132.867 Y161.674 E8.48066
G1 X132.53 Y161.51 E8.49001
G1 X132.207 Y161.338 E8.49914
G1 X131.895 Y161.159 E8.50811
G1 X131.567 Y160.955 E8.51775
G1 X131.274 Y160.758 E8.52655
G1 X130.97 Y160.538 E8.53591
G1 X130.674 Y160.307 E8.54528
G1 X130.409 Y160.085 E8.5539
G1 X129.344 Y159.116 E8.58982
G1 X128.416 Y158.239 E8.62167
G1 X127.504 Y157.347 E8.65349
G1 X126.61 Y156.442 E8.68523
G1 X125.73 Y155.521 E8.717
G1 X124.868 Y154.586 E8.74873
G1 X124.025 Y153.641 E8.78032
G1 X123.191 Y152.671 E8.81223
G1 X122.376 Y151.692 E8.844
G1 X121.58 Y150.7 E8.87573
G1 X120.803 Y149.696 E8.9074
G1 X120.037 Y148.674 E8.93926
G1 X119.297 Y147.648 E8.97081
G1 X118.565 Y146.597 E9.00276
G1 X117.859 Y145.544 E9.03439
G1 X117.166 Y144.472 E9.06623
G1 X116.494 Y143.391 E9.09798
G1 X115.839 Y142.299 E9.12975
G1 X115.205 Y141.197 E9.16146
G1 X114.589 Y140.083 E9.19321
G1 X113.992 Y138.958 E9.22498
G1 X113.416 Y137.828 E9.25662
G1 X112.856 Y136.681 E9.28846
G1 X112.319 Y135.531 E9.32012
G1 X111.799 Y134.365 E9.35197
G1 X111.303 Y133.201 E9.38353
G1 X110.821 Y132.018 E9.4154
G1 X110.367 Y130.834 E9.44703
G1 X109.926 Y129.632 E9.47897
G1 X109.508 Y128.43 E9.51071
G1 X109.111 Y127.221 E9.54246
G1 X108.734 Y126.006 E9.57419
G1 X108.38 Y124.784 E9.60593
G1 X108.045 Y123.555 E9.6377
G1 X107.733 Y122.322 E9.66943
G1 X107.439 Y121.082 E9.70122
G1 X107.17 Y119.839 E9.73294
G1 X106.921 Y118.597 E9.76454
G1 X106.693 Y117.339 E9.79643
G1 X106.487 Y116.087 E9.82809
G1 X106.302 Y114.824 E9.85993
G1 X106.138 Y113.565 E9.8916
G1 X105.997 Y112.298 E9.9234
G1 X105.875 Y111.029 E9.9552
G1 X105.777 Y109.764 E9.98685
G1 X105.702 Y108.496 E10.01854
G1 X105.646 Y107.218 E10.05045
G1 X105.613 Y105.947 E10.08216
G1 X105.601 Y104.679 E10.11379
G1 X105.6 Y100.752 E10.21175
G1 X105.616 Y98.725 E10.26232
G1 X105.666 Y96.749 E10.31163
G1 X105.75 Y94.768 E10.36109
G1 X105.866 Y92.799 E10.41029
G1 X106.017 Y90.832 E10.4595
G1 X106.202 Y88.863 E10.50883
G1 X106.422 Y86.895 E10.55823
G1 X106.674 Y84.939 E10.60743
G1 X106.96 Y82.98 E10.65681
G1 X107.279 Y81.033 E10.70603
G1 X107.633 Y79.081 E10.75552
G1 X108.016 Y77.15 E10.80462
G1 X108.435 Y75.219 E10.85391
G1 X108.889 Y73.293 E10.90327
G1 X109.373 Y71.377 E10.95257
G1 X109.89 Y69.47 E11.00186
G1 X110.44 Y67.572 E11.05115
G1 X111.023 Y65.683 E11.10047
G1 X111.639 Y63.804 E11.14979
G1 X112.286 Y61.938 E11.19906
G1 X112.968 Y60.076 E11.24852
G1 X113.676 Y58.233 E11.29777
G1 X114.416 Y56.405 E11.34697
G1 X115.191 Y54.586 E11.39629
G1 X115.997 Y52.777 E11.44569
G1 X116.83 Y50.99 E11.49487
G1 X117.701 Y49.204 E11.54444
G1 X118.594 Y47.454 E11.59345
G1 X118.624 Y47.396 E11.59508
G1 X118.681 Y47.332 E11.59722
G1 X118.756 Y47.3 E11.59925
G1 X118.826 Y47.298 E11.601
G1 X118.868 Y47.311 E11.60209
G1 X118.951 Y47.375 E11.60471
G1 X118.975 Y47.42 E11.60598
G1 X118.99 Y47.505 E11.60813
G1 X118.978 Y47.569 E11.60972
G1 X117.607 Y54.7 E11.79086
G1 X116.943 Y58.337 E11.88309
G1 X116.312 Y62.051 E11.97706
G1 X116.023 Y63.887 E12.02342
G1 X115.751 Y65.725 E12.06977
G1 X115.498 Y67.569 E12.1162
G1 X115.267 Y69.417 E12.16266
G1 X115.059 Y71.271 E12.2092
G1 X114.877 Y73.131 E12.25582
G1 X114.722 Y74.996 E12.3025
G1 X114.597 Y76.865 E12.34923
G1 X114.545 Y77.804 E12.37269
G1 X114.503 Y78.744 E12.39616
G1 X114.443 Y80.623 E12.44305
G1 X114.427 Y81.569 E12.46665
G1 X114.42 Y82.515 E12.49025
G1 X114.434 Y84.408 E12.53748
G1 X114.488 Y86.307 E12.58487
G1 X114.53 Y87.261 E12.60869
G1 X114.584 Y88.218 E12.6326
G1 X114.725 Y90.127 E12.68035
G1 X114.813 Y91.089 E12.70444
G1 X114.912 Y92.05 E12.72854
G1 X115.023 Y93.012 E12.7527
G1 X115.148 Y93.978 E12.777
G1 X115.284 Y94.944 E12.80133
G1 X115.434 Y95.912 E12.82577
G1 X115.597 Y96.881 E12.85028
G1 X115.772 Y97.853 E12.87492
G1 X115.962 Y98.826 E12.89965
G1 X116.165 Y99.8 E12.92446
G1 X116.383 Y100.778 E12.94946
G1 X116.616 Y101.757 E12.97456
G1 X116.863 Y102.736 E12.99975
G1 X117.125 Y103.719 E13.02513
G1 X117.403 Y104.703 E13.05063
G1 X117.695 Y105.689 E13.07628
G1 X118.004 Y106.678 E13.10213
G1 X118.541 Y108.291 E13.14454
G1 X118.988 Y109.544 E13.17772
G1 X119.464 Y110.79 E13.211
G1 X119.97 Y112.018 E13.24413
G1 X120.236 Y112.631 E13.2608
G1 X120.789 Y113.824 E13.2936
G1 X121.081 Y114.413 E13.31
G1 X121.379 Y114.992 E13.32624
G1 X121.688 Y115.561 E13.34239
G1 X122.005 Y116.12 E13.35842
G1 X122.333 Y116.666 E13.37431
G1 X122.67 Y117.202 E13.39011
G1 X123.018 Y117.722 E13.40571
G1 X123.375 Y118.23 E13.4212
G1 X123.744 Y118.722 E13.43654
G1 X124.123 Y119.198 E13.45172
G1 X124.514 Y119.659 E13.4668
G1 X125.018 Y120.205 E13.48534
G1 X125.435 Y120.623 E13.50006
G1 X125.864 Y121.021 E13.51466
G1 X126.308 Y121.397 E13.52918
G1 X126.762 Y121.751 E13.54354
G1 X127.229 Y122.081 E13.5578
G1 X127.71 Y122.387 E13.57202
G1 X128.204 Y122.668 E13.5862
G1 X128.712 Y122.921 E13.60036
G1 X129.229 Y123.144 E13.6144
G1 X129.5 Y123.249 E13.62165
G1 X129.794 Y123.351 E13.62941
G1 X130.12 Y123.453 E13.63793
G1 X130.772 Y123.625 E13.65475
G1 X131.11 Y123.698 E13.66338
G1 X131.779 Y123.818 E13.68034
G1 X132.462 Y123.909 E13.69752
G1 X132.983 Y123.962 E13.71059
G1 X133.682 Y124.012 E13.72807
G1 X134.399 Y124.046 E13.74597
G1 X135.102 Y124.066 E13.76352
G1 X137.99 Y124.1 E13.83556
G1 X138.743 Y124.116 E13.85435
G1 X139.471 Y124.142 E13.87252
G1 X140.203 Y124.183 E13.89081
G1 X140.944 Y124.244 E13.90936
G1 X141.677 Y124.33 E13.92777
G1 X142.054 Y124.393 E13.9373
G1 X142.367 Y124.463 E13.9453
G1 X142.719 Y124.567 E13.95446
G1 X143.011 Y124.686 E13.96233
G1 X143.151 Y124.757 E13.96624
G1 X143.369 Y124.894 E13.97266
G1 X143.501 Y124.999 E13.97687
G1 X143.674 Y125.18 E13.98312
G1 X143.807 Y125.364 E13.98878
G1 X143.936 Y125.585 E13.99516
G1 X144.016 Y125.745 E13.99963
G1 X144.129 Y126.004 E14.00667
G1 X144.225 Y126.276 E14.01387
G1 X144.288 Y126.503 E14.01975
G1 X144.347 Y126.789 E14.02703
G1 X144.379 Y127.022 E14.0329
G1 X144.397 Y127.298 E14.0398
G1 X144.4 Y130.846 E14.1283
G1 X144.4 Y131.046 E14.13329
G1 X144.2 Y131.046 E14.13652
G1 X140.266 Y131.046 E14.23466
G1 X140.173 Y131.046 E14.23698
G1 X140.069 Y131.046 E14.23957
G1 X139.923 Y131.046 E14.24321
G1 X139.773 Y131.046 E14.24695
G1 X139.923 Y130.954 E14.24787
G1 X140.069 Y130.838 E14.25007
G1 X140.173 Y130.733 E14.25273
G1 X140.232 Y130.662 E14.25481
G1 X140.292 Y130.591 E14.25713
G1 X140.389 Y130.442 E14.26156
G1 X140.482 Y130.25 E14.26689
G1 X140.547 Y130.062 E14.27185
G1 X140.586 Y129.865 E14.27686
G1 X140.601 Y129.652 E14.28218
G1 X140.592 Y129.476 E14.28658
G1 X140.559 Y129.286 E14.29139
G1 X140.507 Y129.103 E14.29614
G1 X140.446 Y128.961 E14.29999
G1 X140.346 Y128.777 E14.30522
G1 X140.242 Y128.638 E14.30955
G1 X140.131 Y128.513 E14.31372
G1 X139.988 Y128.386 E14.31849
G1 X139.837 Y128.282 E14.32306
G1 X139.586 Y128.155 E14.33008
G1 X139.411 Y128.098 E14.33467
G1 X139.228 Y128.062 E14.33932
G1 X139.079 Y128.047 E14.34306
G1 X138.889 Y128.049 E14.3478
G1 X138.695 Y128.073 E14.35267
G1 X138.502 Y128.125 E14.35766
G1 X138.302 Y128.204 E14.36302
G1 X138.127 Y128.303 E14.36804
G1 X137.993 Y128.403 E14.37221
G1 X137.859 Y128.522 E14.37668
G1 X137.676 Y128.744 E14.38386
G1 X137.564 Y128.937 E14.38942
G1 X137.505 Y129.075 E14.39317
G1 X137.452 Y129.235 E14.39737
G1 X137.415 Y129.424 E14.40218
G1 X137.399 Y129.617 E14.40701
G1 X137.407 Y129.815 E14.41195
G1 X137.441 Y130.006 E14.41679
G1 X137.498 Y130.204 E14.42193
G1 X137.62 Y130.458 E14.42896
G1 X137.721 Y130.611 E14.43353
G1 X137.77 Y130.668 E14.43541
G1 X137.856 Y130.767 E14.43868
G1 X138.074 Y130.953 E14.44583
G1 X138.228 Y131.046 E14.45031
G1 X138.074 Y131.046 E14.45062
G1 X137.856 Y131.046 E14.45289
G1 X137.724 Y131.046 E14.45573
G1 X132.4 Y131.046 E14.58854
G0 F3600 X132.8 Y131.446
;TYPE:WALL-OUTER
G1 F1800 X132.8 Y154.846 E15.17226
G1 X144.6 Y154.846 E15.46661
G1 X144.8 Y154.846 E15.4716
G1 X144.8 Y155.046 E15.47483
G1 X144.794 Y158.86 E15.56997
G1 X144.772 Y159.112 E15.57628
G1 X144.728 Y159.391 E15.58332
G1 X144.667 Y159.657 E15.59013
G1 X144.592 Y159.904 E15.59657
